; generated by PrusaSlicer 2.0.0+win64 on 2020-01-04 at 13:41:55

; 

; external perimeters extrusion width = 0.45mm
; perimeters extrusion width = 0.45mm
; infill extrusion width = 0.45mm
; solid infill extrusion width = 0.45mm
; top infill extrusion width = 0.40mm

M107
M104 S210 ; set temperature
G28 ; home all axes
G1 Z5 F5000 ; lift nozzle
; Filament gcode
M109 S210 ; set temperature and wait for it to be reached
G21 ; set units to millimeters
G90 ; use absolute coordinates
M82 ; use absolute distances for extrusion
G92 E0
G1 Z0.350 F9600.000
G1 E-4.00000 F4800.00000
G92 E0
G1 X43.326 Y41.921 F9600.000
G1 E4.00000 F4800.00000
G1 F1800
G1 X44.740 Y40.576 E4.09177
G1 X46.299 Y39.419 E4.18308
G1 X47.996 Y38.455 E4.27485
G1 X49.798 Y37.707 E4.36662
G1 X51.679 Y37.184 E4.45839
G1 X56.377 Y36.524 E4.68148
G1 X57.821 Y36.409 E4.74963
G1 X91.880 Y35.813 E6.35142
G1 X93.190 Y35.868 E6.41308
G1 X94.553 Y36.035 E6.47766
G1 X95.810 Y36.290 E6.53794
G1 X97.032 Y36.641 E6.59775
G1 X101.591 Y38.403 E6.82760
G1 X102.934 Y39.091 E6.89853
G1 X104.197 Y39.898 E6.96900
G1 X105.304 Y40.755 E7.03483
G1 X106.331 Y41.706 E7.10067
G1 X107.271 Y42.744 E7.16650
G1 X108.116 Y43.860 E7.23234
G1 X108.860 Y45.046 E7.29817
G1 X109.497 Y46.293 E7.36401
G1 X110.022 Y47.591 E7.42984
G1 X110.431 Y48.930 E7.49568
G1 X110.795 Y50.787 E7.58467
G1 X110.935 Y52.664 E7.67320
G1 X110.702 Y66.317 E8.31530
G1 X109.268 Y84.683 E9.18154
G1 X108.222 Y92.469 E9.55095
G1 X107.852 Y94.063 E9.62790
G1 X107.317 Y95.620 E9.70531
G1 X106.752 Y96.868 E9.76976
G1 X106.086 Y98.055 E9.83374
G1 X103.370 Y102.007 E10.05923
G1 X100.032 Y105.952 E10.30223
G1 X98.634 Y107.342 E10.39492
G1 X97.327 Y108.375 E10.47327
G1 X95.910 Y109.270 E10.55207
G1 X87.436 Y113.811 E11.00417
G1 X85.755 Y114.568 E11.09085
G1 X84.369 Y115.025 E11.15946
G1 X82.938 Y115.356 E11.22854
G1 X78.090 Y115.971 E11.45836
G1 X76.278 Y116.058 E11.54365
G1 X72.820 Y115.923 E11.70637
G1 X69.765 Y115.710 E11.85039
G1 X66.652 Y115.138 E11.99924
G1 X62.711 Y114.144 E12.19035
G1 X60.673 Y113.446 E12.29164
G1 X59.075 Y112.698 E12.37462
G1 X56.949 Y111.445 E12.49063
G1 X54.532 Y109.753 E12.62935
G1 X52.764 Y108.139 E12.74195
G1 X50.515 Y105.491 E12.90530
G1 X49.162 Y103.299 E13.02647
G1 X44.764 Y94.909 E13.47191
G1 X43.678 Y92.473 E13.59730
G1 X41.786 Y87.304 E13.85613
G1 X41.320 Y85.359 E13.95021
G1 X40.978 Y82.661 E14.07808
G1 X39.275 Y64.917 E14.91628
G1 X39.084 Y51.943 E15.52644
G1 X39.206 Y50.637 E15.58811
G1 X39.437 Y49.336 E15.65024
G1 X39.772 Y48.068 E15.71190
G1 X40.214 Y46.823 E15.77403
G1 X41.047 Y45.069 E15.86534
G1 X42.093 Y43.422 E15.95711
G1 X43.288 Y41.968 E16.04559
G1 X43.579 Y42.208 F9600.000
G1 F1800
G1 X45.016 Y40.834 E16.13910
G1 X46.552 Y39.701 E16.22887
G1 X48.207 Y38.769 E16.31818
G1 X49.973 Y38.043 E16.40795
G1 X51.814 Y37.538 E16.49772
G1 X56.434 Y36.895 E16.71705
G1 X57.842 Y36.783 E16.78348
G1 X91.883 Y36.188 E18.38445
G1 X93.168 Y36.242 E18.44493
G1 X94.499 Y36.406 E18.50799
G1 X95.731 Y36.656 E18.56709
G1 X96.929 Y37.002 E18.62573
G1 X101.438 Y38.745 E18.85303
G1 X102.747 Y39.416 E18.92221
G1 X103.995 Y40.214 E18.99184
G1 X105.079 Y41.056 E19.05644
G1 X106.086 Y41.991 E19.12104
G1 X107.006 Y43.012 E19.18563
G1 X107.832 Y44.109 E19.25023
G1 X108.559 Y45.275 E19.31483
G1 X109.176 Y46.491 E19.37897
G1 X109.687 Y47.767 E19.44357
G1 X110.083 Y49.082 E19.50817
G1 X110.428 Y50.870 E19.59382
G1 X110.561 Y52.697 E19.67993
G1 X110.327 Y66.302 E20.31977
G1 X108.896 Y84.637 E21.18458
G1 X107.853 Y92.401 E21.55297
G1 X107.487 Y93.977 E21.62901
G1 X106.959 Y95.505 E21.70505
G1 X106.411 Y96.711 E21.76736
G1 X105.762 Y97.867 E21.82967
G1 X103.059 Y101.796 E22.05394
G1 X99.749 Y105.705 E22.29477
G1 X98.374 Y107.071 E22.38591
G1 X97.097 Y108.078 E22.46241
G1 X95.721 Y108.946 E22.53891
G1 X87.270 Y113.475 E22.98980
G1 X85.608 Y114.222 E23.07545
G1 X84.248 Y114.670 E23.14279
G1 X82.852 Y114.991 E23.21014
G1 X78.028 Y115.601 E23.43879
G1 X76.267 Y115.683 E23.52169
G1 X72.817 Y115.547 E23.68405
G1 X69.809 Y115.338 E23.82583
G1 X66.725 Y114.771 E23.97329
G1 X62.808 Y113.782 E24.16323
G1 X60.777 Y113.084 E24.26424
G1 X59.226 Y112.354 E24.34485
G1 X57.126 Y111.114 E24.45954
G1 X54.743 Y109.442 E24.59642
G1 X53.019 Y107.864 E24.70631
G1 X50.797 Y105.241 E24.86793
G1 X49.484 Y103.108 E24.98574
G1 X45.095 Y94.732 E25.43042
G1 X44.023 Y92.327 E25.55419
G1 X42.136 Y87.165 E25.81264
G1 X41.685 Y85.270 E25.90423
G1 X41.350 Y82.608 E26.03040
G1 X39.649 Y64.902 E26.86686
G1 X39.458 Y51.972 E27.47491
G1 X39.579 Y50.682 E27.53585
G1 X39.806 Y49.406 E27.59678
G1 X40.138 Y48.154 E27.65772
G1 X40.574 Y46.933 E27.71865
G1 X41.393 Y45.219 E27.80796
G1 X42.420 Y43.610 E27.89773
G1 X43.540 Y42.254 E27.98045
G1 X43.830 Y42.495 F9600.000
G1 F1800
G1 X43.940 Y42.363 E27.98852
G1 X45.293 Y41.091 E28.07585
G1 X46.799 Y39.988 E28.16362
G1 X48.420 Y39.083 E28.25095
G1 X50.149 Y38.379 E28.33872
G1 X51.942 Y37.895 E28.42605
G1 X56.491 Y37.266 E28.64198
G1 X57.863 Y37.158 E28.70670
G1 X91.886 Y36.563 E30.30685
G1 X93.136 Y36.616 E30.36569
G1 X94.445 Y36.777 E30.42767
G1 X96.817 Y37.360 E30.54254
G1 X101.284 Y39.087 E30.76775
G1 X102.568 Y39.746 E30.83563
G1 X103.784 Y40.524 E30.90352
G1 X104.848 Y41.352 E30.96688
G1 X105.827 Y42.263 E31.02979
G1 X106.729 Y43.265 E31.09315
G1 X107.538 Y44.342 E31.15651
G1 X108.243 Y45.479 E31.21942
G1 X108.850 Y46.682 E31.28279
G1 X109.348 Y47.934 E31.34615
G1 X109.733 Y49.225 E31.40951
G1 X110.061 Y50.955 E31.49231
G1 X110.186 Y52.722 E31.57557
G1 X109.953 Y66.288 E32.21359
G1 X108.524 Y84.591 E33.07691
G1 X107.484 Y92.334 E33.44427
G1 X107.122 Y93.890 E33.51939
G1 X106.598 Y95.399 E33.59451
G1 X106.061 Y96.572 E33.65516
G1 X105.427 Y97.695 E33.71581
G1 X102.743 Y101.594 E33.93837
G1 X99.467 Y105.458 E34.17660
G1 X98.108 Y106.806 E34.26663
G1 X96.859 Y107.787 E34.34130
G1 X95.523 Y108.628 E34.41551
G1 X87.094 Y113.144 E34.86517
G1 X85.453 Y113.880 E34.94978
G1 X84.126 Y114.315 E35.01540
G1 X82.766 Y114.625 E35.08102
G1 X77.967 Y115.230 E35.30846
G1 X76.256 Y115.308 E35.38900
G1 X72.814 Y115.172 E35.55098
G1 X69.853 Y114.965 E35.69055
G1 X66.789 Y114.401 E35.83707
G1 X62.906 Y113.420 E36.02538
G1 X60.891 Y112.725 E36.12561
G1 X59.386 Y112.014 E36.20390
G1 X57.302 Y110.782 E36.31770
G1 X54.961 Y109.136 E36.45229
G1 X53.275 Y107.588 E36.55994
G1 X51.085 Y105.000 E36.71935
G1 X49.812 Y102.925 E36.83383
G1 X45.430 Y94.563 E37.27773
G1 X44.372 Y92.191 E37.39990
G1 X42.489 Y87.036 E37.65794
G1 X42.052 Y85.192 E37.74707
G1 X41.722 Y82.566 E37.87153
G1 X40.024 Y64.886 E38.70672
G1 X39.832 Y52.001 E39.31267
G1 X39.950 Y50.736 E39.37242
G1 X40.174 Y49.476 E39.43261
G1 X40.505 Y48.239 E39.49281
G1 X40.934 Y47.043 E39.55255
G1 X41.738 Y45.369 E39.63988
G1 X42.746 Y43.798 E39.72765
G1 X43.791 Y42.541 E39.80453
G1 E35.80453 F4800.00000
G92 E0
G1 X54.162 Y76.117 F9600.000
G1 E4.00000 F4800.00000
G1 F1800
G1 X53.940 Y75.317 E4.03902
G1 X53.666 Y74.545 E4.07753
G1 X53.528 Y73.293 E4.13675
G1 X53.826 Y70.999 E4.24552
G1 X54.208 Y70.090 E4.29188
G1 X53.859 Y69.579 E4.32099
G1 X53.580 Y69.321 E4.33884
G1 X53.223 Y68.898 E4.36488
G1 X52.969 Y68.417 E4.39046
G1 X52.210 Y67.938 E4.43265
G1 X51.374 Y67.041 E4.49031
G1 X50.610 Y65.403 E4.57530
G1 X50.526 Y64.757 E4.60596
G1 X50.515 Y54.376 E5.09409
G1 X50.449 Y54.176 E5.10397
G1 X50.311 Y53.283 E5.14649
G1 X50.406 Y51.599 E5.22581
G1 X50.640 Y50.901 E5.26042
G1 X50.980 Y50.244 E5.29520
G1 X51.933 Y49.186 E5.36216
G1 X52.816 Y48.592 E5.41221
G1 X53.757 Y48.194 E5.46027
G1 X54.838 Y48.031 E5.51164
G1 X55.243 Y48.030 E5.53069
G1 X56.026 Y47.863 E5.56836
G1 X56.473 Y47.845 E5.58937
G1 X56.690 Y47.864 E5.59965
G1 X58.483 Y47.619 E5.68474
G1 X59.604 Y47.747 E5.73780
G1 X60.039 Y47.902 E5.75950
G1 X62.829 Y48.284 E5.89190
G1 X63.684 Y48.631 E5.93531
G1 X65.552 Y49.024 E6.02508
G1 X65.836 Y49.006 E6.03844
G1 X66.869 Y49.136 E6.08741
G1 X69.710 Y50.418 E6.23396
G1 X70.646 Y50.733 E6.28043
G1 X71.628 Y51.139 E6.33038
G1 X72.326 Y51.590 E6.36946
G1 X73.289 Y52.724 E6.43943
G1 X73.714 Y53.697 E6.48937
G1 X73.764 Y53.877 E6.49814
G1 X74.048 Y54.564 E6.53310
G1 X74.277 Y54.685 E6.54527
G1 X74.641 Y54.948 E6.56641
G1 X75.019 Y53.994 E6.61469
G1 X75.812 Y52.944 E6.67655
G1 X76.467 Y52.400 E6.71660
G1 X76.992 Y52.097 E6.74512
G1 X77.243 Y51.917 E6.75965
G1 X77.493 Y51.697 E6.77527
G1 X80.861 Y49.507 E6.96421
G1 X81.818 Y49.232 E7.01103
G1 X82.462 Y49.193 E7.04134
G1 X83.116 Y48.903 E7.07502
G1 X83.222 Y48.827 E7.08115
G1 X84.197 Y48.292 E7.13344
G1 X85.652 Y47.914 E7.20414
G1 X87.136 Y47.878 E7.27395
G1 X88.153 Y48.101 E7.32291
G1 X89.093 Y47.609 E7.37279
G1 X90.316 Y47.341 E7.43165
G1 X90.784 Y47.189 E7.45479
G1 X91.753 Y47.063 E7.50075
G1 X93.377 Y47.214 E7.57744
G1 X94.547 Y47.652 E7.63619
G1 X94.981 Y47.943 E7.66074
G1 X95.908 Y48.163 E7.70556
G1 X96.467 Y48.452 E7.73513
G1 X96.860 Y48.582 E7.75461
G1 X97.819 Y49.141 E7.80680
G1 X99.030 Y50.465 E7.89117
G1 X99.361 Y51.154 E7.92716
G1 X99.688 Y52.444 E7.98971
G1 X99.678 Y53.653 E8.04656
G1 X99.484 Y54.514 E8.08805
G1 X99.390 Y66.303 E8.64243
G1 X99.017 Y67.331 E8.69385
G1 X98.426 Y68.253 E8.74537
G1 X97.996 Y68.684 E8.77399
G1 X97.533 Y69.480 E8.81731
G1 X96.644 Y70.370 E8.87641
G1 X96.576 Y71.068 E8.90941
G1 X96.290 Y71.930 E8.95211
G1 X96.162 Y72.167 E8.96475
G1 X96.022 Y72.837 E8.99699
G1 X95.779 Y73.498 E9.03007
G1 X95.772 Y73.901 E9.04901
G1 X95.535 Y75.357 E9.11841
G1 X95.838 Y75.988 E9.15132
G1 X96.253 Y76.369 E9.17779
G1 X97.020 Y77.582 E9.24524
G1 X97.667 Y79.838 E9.35564
G1 X97.784 Y80.510 E9.38770
G1 X97.795 Y80.818 E9.40217
G1 X97.835 Y81.058 E9.41363
G1 X97.888 Y81.230 E9.42208
G1 X98.110 Y82.388 E9.47756
G1 X98.081 Y83.536 E9.53154
G1 X97.808 Y84.565 E9.58159
G1 X97.361 Y85.435 E9.62762
G1 X96.645 Y86.259 E9.67894
G1 X96.645 Y86.647 E9.69718
G1 X96.587 Y87.019 E9.71487
G1 X97.062 Y87.909 E9.76232
G1 X97.396 Y89.561 E9.84157
G1 X97.360 Y90.180 E9.87072
G1 X97.237 Y90.772 E9.89914
G1 X96.830 Y91.799 E9.95110
G1 X96.261 Y92.629 E9.99841
G1 X96.033 Y92.853 E10.01342
G1 X95.546 Y93.619 E10.05614
G1 X94.967 Y94.266 E10.09699
G1 X94.822 Y94.391 E10.10598
G1 X94.309 Y95.361 E10.15756
G1 X92.237 Y97.677 E10.30369
G1 X92.089 Y97.945 E10.31808
G1 X91.298 Y98.866 E10.37517
G1 X90.589 Y99.367 E10.41599
G1 X90.028 Y99.664 E10.44585
G1 X88.964 Y99.922 E10.49732
G1 X87.825 Y100.451 E10.55638
G1 X87.660 Y100.601 E10.56686
G1 X86.408 Y101.513 E10.63972
G1 X84.609 Y102.407 E10.73416
G1 X83.498 Y103.016 E10.79374
G1 X82.621 Y103.618 E10.84378
G1 X81.204 Y104.341 E10.91858
G1 X80.543 Y104.491 E10.95043
G1 X79.847 Y104.539 E10.98326
G1 X78.968 Y104.369 E11.02535
G1 X78.714 Y104.390 E11.03732
G1 X78.317 Y104.574 E11.05791
G1 X77.096 Y104.839 E11.11664
G1 X73.189 Y104.677 E11.30055
G1 X72.912 Y104.637 E11.31368
G1 X72.706 Y104.662 E11.32345
G1 X71.718 Y104.663 E11.36990
G1 X68.097 Y103.958 E11.54336
G1 X67.382 Y103.620 E11.58058
G1 X66.188 Y103.497 E11.63702
G1 X65.325 Y103.165 E11.68050
G1 X64.515 Y102.946 E11.71993
G1 X63.994 Y102.712 E11.74681
G1 X63.217 Y102.216 E11.79014
G1 X62.868 Y101.866 E11.81337
G1 X62.538 Y101.670 E11.83146
G1 X60.918 Y100.502 E11.92536
G1 X60.338 Y99.818 E11.96754
G1 X59.784 Y99.217 E12.00597
G1 X58.847 Y97.563 E12.09532
G1 X58.675 Y97.321 E12.10932
G1 X58.364 Y96.725 E12.14091
G1 X58.173 Y96.132 E12.17021
G1 X58.078 Y95.498 E12.20037
G1 X57.985 Y95.141 E12.21772
G1 X57.602 Y93.989 E12.27481
G1 X56.977 Y92.970 E12.33104
G1 X56.682 Y92.688 E12.35021
G1 X55.127 Y90.462 E12.47789
G1 X54.681 Y89.406 E12.53181
G1 X54.223 Y88.579 E12.57623
G1 X53.832 Y86.721 E12.66555
G1 X53.889 Y86.076 E12.69599
G1 X53.519 Y85.753 E12.71909
G1 X52.916 Y84.892 E12.76852
G1 X52.448 Y83.687 E12.82931
G1 X52.034 Y80.077 E13.00016
G1 X52.207 Y78.969 E13.05290
G1 X52.678 Y77.949 E13.10572
G1 X54.124 Y76.163 E13.21378
G1 X54.523 Y76.016 F9600.000
G1 F1800
G1 X54.297 Y75.202 E13.25350
G1 X54.037 Y74.481 E13.28957
G1 X53.903 Y73.275 E13.34664
G1 X54.195 Y71.075 E13.45099
G1 X54.656 Y69.999 E13.50602
G1 X54.488 Y69.835 E13.51706
G1 X54.144 Y69.332 E13.54573
G1 X53.859 Y69.070 E13.56394
G1 X53.523 Y68.673 E13.58837
G1 X53.255 Y68.153 E13.61588
G1 X52.467 Y67.664 E13.65950
G1 X51.669 Y66.807 E13.71457
G1 X50.978 Y65.325 E13.79145
G1 X50.900 Y64.744 E13.81903
G1 X50.890 Y54.312 E14.30958
G1 X50.817 Y54.100 E14.32013
G1 X50.686 Y53.282 E14.35906
G1 X50.770 Y51.693 E14.43388
G1 X50.990 Y51.034 E14.46656
G1 X51.301 Y50.439 E14.49814
G1 X52.161 Y49.484 E14.55855
G1 X53.011 Y48.913 E14.60671
G1 X53.837 Y48.561 E14.64893
G1 X54.873 Y48.404 E14.69821
G1 X55.175 Y48.415 E14.71240
G1 X55.316 Y48.398 E14.71909
G1 X56.058 Y48.237 E14.75477
G1 X56.474 Y48.220 E14.77436
G1 X56.698 Y48.242 E14.78497
G1 X58.465 Y47.994 E14.86883
G1 X59.538 Y48.117 E14.91964
G1 X59.946 Y48.268 E14.94010
G1 X62.753 Y48.652 E15.07334
G1 X63.607 Y49.005 E15.11676
G1 X63.742 Y49.015 E15.12313
G1 X65.527 Y49.402 E15.20900
G1 X65.812 Y49.381 E15.22246
G1 X66.742 Y49.490 E15.26649
G1 X69.573 Y50.767 E15.41253
G1 X70.510 Y51.082 E15.45901
G1 X71.443 Y51.465 E15.50644
G1 X72.060 Y51.855 E15.54074
G1 X72.985 Y52.945 E15.60797
G1 X73.364 Y53.830 E15.65328
G1 X73.412 Y54.011 E15.66205
G1 X73.508 Y54.213 E15.67261
G1 X73.564 Y54.402 E15.68186
G1 X73.764 Y54.838 E15.70441
G1 X74.088 Y55.010 E15.72168
G1 X74.730 Y55.483 E15.75917
G1 X74.986 Y55.102 E15.78076
G1 X75.335 Y54.197 E15.82636
G1 X76.068 Y53.218 E15.88388
G1 X76.693 Y52.699 E15.92208
G1 X77.195 Y52.414 E15.94921
G1 X77.479 Y52.209 E15.96566
G1 X77.710 Y52.003 E15.98024
G1 X80.992 Y49.860 E16.16456
G1 X81.901 Y49.598 E16.20902
G1 X82.549 Y49.565 E16.23957
G1 X83.309 Y49.228 E16.27863
G1 X83.417 Y49.147 E16.28497
G1 X84.315 Y48.649 E16.33326
G1 X85.725 Y48.282 E16.40178
G1 X87.120 Y48.253 E16.46741
G1 X88.262 Y48.510 E16.52243
G1 X88.480 Y48.341 E16.53539
G1 X89.197 Y47.970 E16.57337
G1 X90.416 Y47.702 E16.63204
G1 X90.852 Y47.558 E16.65366
G1 X91.740 Y47.439 E16.69579
G1 X93.316 Y47.585 E16.77024
G1 X94.392 Y47.993 E16.82432
G1 X94.826 Y48.292 E16.84912
G1 X95.757 Y48.508 E16.89405
G1 X96.323 Y48.799 E16.92401
G1 X96.692 Y48.918 E16.94221
G1 X97.564 Y49.417 E16.98945
G1 X98.705 Y50.654 E17.06859
G1 X99.003 Y51.267 E17.10066
G1 X99.313 Y52.466 E17.15888
G1 X99.303 Y53.629 E17.21356
G1 X99.109 Y54.469 E17.25412
G1 X99.026 Y66.205 E17.80600
G1 X98.672 Y67.183 E17.85489
G1 X98.123 Y68.031 E17.90243
G1 X97.696 Y68.454 E17.93065
G1 X97.249 Y69.234 E17.97292
G1 X96.283 Y70.201 E18.03724
G1 X96.213 Y70.971 E18.07359
G1 X95.940 Y71.794 E18.11436
G1 X95.807 Y72.033 E18.12720
G1 X95.658 Y72.747 E18.16150
G1 X95.405 Y73.429 E18.19571
G1 X95.400 Y73.855 E18.21574
G1 X95.147 Y75.413 E18.29000
G1 X95.533 Y76.219 E18.33200
G1 X95.952 Y76.594 E18.35844
G1 X96.667 Y77.712 E18.42083
G1 X97.299 Y79.913 E18.52852
G1 X97.412 Y80.561 E18.55944
G1 X97.421 Y80.854 E18.57322
G1 X97.470 Y81.146 E18.58718
G1 X97.522 Y81.313 E18.59539
G1 X97.734 Y82.400 E18.64747
G1 X97.707 Y83.504 E18.69940
G1 X97.452 Y84.448 E18.74538
G1 X97.063 Y85.207 E18.78549
G1 X96.271 Y86.119 E18.84231
G1 X96.270 Y86.631 E18.86638
G1 X96.186 Y87.144 E18.89080
G1 X96.303 Y87.283 E18.89938
G1 X96.701 Y88.013 E18.93846
G1 X97.021 Y89.565 E19.01297
G1 X96.990 Y90.118 E19.03901
G1 X96.874 Y90.680 E19.06597
G1 X96.490 Y91.640 E19.11459
G1 X95.965 Y92.399 E19.15800
G1 X95.742 Y92.613 E19.17251
G1 X95.240 Y93.402 E19.21650
G1 X94.945 Y93.710 E19.23657
G1 X94.691 Y94.011 E19.25508
G1 X94.525 Y94.150 E19.26529
G1 X94.014 Y95.129 E19.31719
G1 X91.927 Y97.461 E19.46437
G1 X91.789 Y97.719 E19.47810
G1 X91.062 Y98.574 E19.53087
G1 X90.383 Y99.054 E19.56997
G1 X89.875 Y99.320 E19.59696
G1 X88.841 Y99.565 E19.64693
G1 X87.613 Y100.135 E19.71058
G1 X87.430 Y100.305 E19.72232
G1 X86.226 Y101.185 E19.79241
G1 X84.436 Y102.074 E19.88644
G1 X83.301 Y102.697 E19.94728
G1 X82.438 Y103.291 E19.99655
G1 X81.098 Y103.981 E20.06744
G1 X80.475 Y104.122 E20.09746
G1 X79.848 Y104.163 E20.12703
G1 X78.990 Y103.991 E20.16816
G1 X78.614 Y104.023 E20.18593
G1 X78.213 Y104.213 E20.20677
G1 X77.087 Y104.463 E20.26104
G1 X73.214 Y104.303 E20.44329
G1 X72.916 Y104.259 E20.45747
G1 X72.692 Y104.287 E20.46810
