; generated by PrusaSlicer 2.0.0+win64 on 2019-11-21 at 00:12:46

; 

; external perimeters extrusion width = 0.45mm
; perimeters extrusion width = 0.45mm
; infill extrusion width = 0.45mm
; solid infill extrusion width = 0.45mm
; top infill extrusion width = 0.40mm

M107
M104 S210 ; set temperature
G28 ; home all axes
G1 Z5 F5000 ; lift nozzle
; Filament gcode
M109 S210 ; set temperature and wait for it to be reached
G21 ; set units to millimeters
G90 ; use absolute coordinates
M82 ; use absolute distances for extrusion
G92 E0
G1 Z0.350 F9600.000
G1 E-4.00000 F4800.00000
G92 E0
G1 X44.609 Y43.298 F9600.000
G1 E4.00000 F4800.00000
G1 F1800
G1 X45.842 Y42.266 E4.07558
G1 X47.182 Y41.362 E4.15163
G1 X48.610 Y40.602 E4.22767
G1 X50.108 Y39.994 E4.30371
G1 X51.662 Y39.545 E4.37975
G1 X53.254 Y39.260 E4.45579
G1 X55.149 Y39.138 E4.54510
G1 X94.810 Y39.138 E6.41008
G1 X96.153 Y39.197 E6.47330
G1 X97.477 Y39.370 E6.53607
G1 X98.780 Y39.655 E6.59884
G1 X100.064 Y40.055 E6.66206
G1 X101.309 Y40.564 E6.72528
G1 X102.496 Y41.174 E6.78805
G1 X103.635 Y41.889 E6.85127
G1 X104.700 Y42.693 E6.91404
G1 X105.693 Y43.585 E6.97681
G1 X106.611 Y44.567 E7.04003
G1 X107.436 Y45.616 E7.10280
G1 X108.173 Y46.741 E7.16602
G1 X108.810 Y47.925 E7.22925
G1 X109.339 Y49.150 E7.29201
G1 X109.764 Y50.426 E7.35524
G1 X110.075 Y51.724 E7.41800
G1 X110.285 Y53.151 E7.48581
G1 X110.362 Y54.600 E7.55407
G1 X110.344 Y96.060 E9.50363
G1 X110.081 Y98.245 E9.60712
G1 X109.516 Y100.362 E9.71015
G1 X108.655 Y102.387 E9.81363
G1 X107.517 Y104.271 E9.91712
G1 X106.433 Y105.637 E9.99911
G1 X105.204 Y106.873 E10.08110
G1 X103.844 Y107.965 E10.16309
G1 X102.379 Y108.892 E10.24463
G1 X100.820 Y109.651 E10.32616
G1 X99.177 Y110.234 E10.40815
G1 X97.479 Y110.630 E10.49014
G1 X95.747 Y110.833 E10.57213
G1 X54.314 Y110.837 E12.52047
G1 X52.159 Y110.562 E12.62258
G1 X50.074 Y109.994 E12.72424
G1 X48.078 Y109.137 E12.82636
G1 X46.229 Y108.017 E12.92801
G1 X44.863 Y106.933 E13.01000
G1 X43.627 Y105.704 E13.09200
G1 X42.535 Y104.344 E13.17399
G1 X41.608 Y102.879 E13.25552
G1 X40.845 Y101.311 E13.33751
G1 X40.263 Y99.667 E13.41950
G1 X39.868 Y97.969 E13.50149
G1 X39.666 Y96.237 E13.58348
G1 X39.662 Y53.833 E15.57747
G1 X39.934 Y51.679 E15.67958
G1 X40.503 Y49.583 E15.78170
G1 X41.358 Y47.587 E15.88381
G1 X42.483 Y45.729 E15.98593
G1 X43.483 Y44.458 E16.06197
G1 X44.567 Y43.341 E16.13519
G1 X44.837 Y43.604 F9600.000
G1 F1800
G1 X46.105 Y42.537 E16.21311
G1 X47.416 Y41.659 E16.28733
G1 X48.812 Y40.921 E16.36154
G1 X50.276 Y40.333 E16.43576
G1 X51.794 Y39.899 E16.50997
G1 X53.348 Y39.626 E16.58419
G1 X55.153 Y39.513 E16.66925
G1 X94.810 Y39.513 E18.53402
G1 X96.117 Y39.570 E18.59557
G1 X97.415 Y39.739 E18.65712
G1 X98.694 Y40.020 E18.71867
G1 X99.943 Y40.410 E18.78023
G1 X101.155 Y40.906 E18.84178
G1 X102.319 Y41.504 E18.90333
G1 X103.427 Y42.201 E18.96489
G1 X104.479 Y42.996 E19.02689
G1 X105.451 Y43.873 E19.08844
G1 X106.344 Y44.831 E19.15000
G1 X107.151 Y45.861 E19.21155
G1 X107.871 Y46.966 E19.27356
G1 X108.488 Y48.120 E19.33511
G1 X109.004 Y49.323 E19.39666
G1 X109.414 Y50.566 E19.45821
G1 X109.716 Y51.840 E19.51977
G1 X109.915 Y53.221 E19.58539
G1 X109.987 Y54.615 E19.65102
G1 X109.969 Y96.041 E21.59900
G1 X109.712 Y98.180 E21.70033
G1 X109.151 Y100.271 E21.80211
G1 X108.303 Y102.252 E21.90344
G1 X107.183 Y104.093 E22.00477
G1 X106.121 Y105.424 E22.08486
G1 X104.923 Y106.622 E22.16450
G1 X103.592 Y107.684 E22.24459
G1 X102.158 Y108.586 E22.32423
G1 X100.633 Y109.323 E22.40387
G1 X99.036 Y109.885 E22.48351
G1 X97.376 Y110.267 E22.56360
G1 X95.693 Y110.461 E22.64324
G1 X54.344 Y110.463 E24.58764
G1 X52.235 Y110.195 E24.68761
G1 X50.174 Y109.632 E24.78804
G1 X48.222 Y108.790 E24.88801
G1 X46.407 Y107.683 E24.98798
G1 X45.076 Y106.621 E25.06808
G1 X43.878 Y105.423 E25.14772
G1 X42.816 Y104.092 E25.22781
G1 X41.914 Y102.658 E25.30745
G1 X41.177 Y101.133 E25.38709
G1 X40.612 Y99.526 E25.46718
G1 X40.231 Y97.866 E25.54727
G1 X40.038 Y96.184 E25.62691
G1 X40.036 Y53.863 E27.61698
G1 X40.303 Y51.744 E27.71740
G1 X40.865 Y49.684 E27.81783
G1 X41.710 Y47.722 E27.91825
G1 X42.817 Y45.907 E28.01822
G1 X43.796 Y44.669 E28.09244
G1 X44.795 Y43.647 E28.15965
G1 E24.15965 F4800.00000
G92 E0
G1 X92.003 Y85.675 F9600.000
G1 E4.00000 F4800.00000
G1 F1800
G1 X88.476 Y85.675 E4.16584
G1 X87.973 Y86.473 E4.21022
G1 X87.175 Y86.976 E4.25460
G1 X87.175 Y90.503 E4.42043
G1 X82.825 Y90.503 E4.62496
G1 X82.825 Y87.033 E4.78813
G1 X82.495 Y86.857 E4.80576
G1 X81.579 Y85.919 E4.86738
G1 X81.000 Y84.743 E4.92901
G1 X80.812 Y83.500 E4.98814
G1 X81.000 Y82.257 E5.04726
G1 X81.579 Y81.081 E5.10889
G1 X82.495 Y80.143 E5.17052
G1 X82.825 Y79.967 E5.18815
G1 X82.825 Y71.033 E5.60822
G1 X82.495 Y70.857 E5.62585
G1 X81.579 Y69.919 E5.68748
G1 X81.000 Y68.743 E5.74911
G1 X80.812 Y67.500 E5.80823
G1 X81.000 Y66.257 E5.86736
G1 X81.579 Y65.081 E5.92899
G1 X82.495 Y64.143 E5.99061
G1 X82.825 Y63.967 E6.00824
G1 X82.825 Y60.497 E6.17141
G1 X87.175 Y60.497 E6.37594
G1 X87.175 Y64.024 E6.54177
G1 X87.973 Y64.527 E6.58615
G1 X88.476 Y65.325 E6.63053
G1 X92.003 Y65.325 E6.79637
G1 X92.003 Y69.675 E7.00090
G1 X88.476 Y69.675 E7.16674
G1 X87.973 Y70.473 E7.21112
G1 X87.175 Y70.976 E7.25550
G1 X87.175 Y80.024 E7.68092
G1 X87.973 Y80.527 E7.72530
G1 X88.476 Y81.325 E7.76968
G1 X92.003 Y81.325 E7.93551
G1 X92.003 Y85.615 E8.13722
G1 X91.628 Y85.300 F9600.000
G1 F1800
G1 X88.270 Y85.300 E8.29516
G1 X87.701 Y86.201 E8.34527
G1 X86.800 Y86.770 E8.39538
G1 X86.800 Y90.128 E8.55331
G1 X83.200 Y90.128 E8.72258
G1 X83.200 Y86.808 E8.87870
G1 X82.722 Y86.553 E8.90417
G1 X81.889 Y85.700 E8.96026
G1 X81.362 Y84.630 E9.01635
G1 X81.191 Y83.500 E9.07008
G1 X81.362 Y82.370 E9.12380
G1 X81.889 Y81.300 E9.17989
G1 X82.722 Y80.447 E9.23599
G1 X83.200 Y80.192 E9.26145
G1 X83.200 Y70.808 E9.70269
G1 X82.722 Y70.553 E9.72815
G1 X81.889 Y69.700 E9.78425
G1 X81.362 Y68.630 E9.84034
G1 X81.191 Y67.500 E9.89406
G1 X81.362 Y66.370 E9.94779
G1 X81.889 Y65.300 E10.00388
G1 X82.722 Y64.447 E10.05998
G1 X83.200 Y64.192 E10.08544
G1 X83.200 Y60.872 E10.24156
G1 X86.800 Y60.872 E10.41083
G1 X86.800 Y64.230 E10.56877
G1 X87.701 Y64.799 E10.61887
G1 X88.270 Y65.700 E10.66898
G1 X91.628 Y65.700 E10.82692
G1 X91.628 Y69.300 E10.99619
G1 X88.270 Y69.300 E11.15413
G1 X87.701 Y70.201 E11.20424
G1 X86.800 Y70.770 E11.25434
G1 X86.800 Y80.230 E11.69922
G1 X87.701 Y80.799 E11.74933
G1 X88.270 Y81.700 E11.79943
G1 X91.628 Y81.700 E11.95737
G1 X91.628 Y85.240 E12.12382
G1 X91.253 Y84.925 F9600.000
G1 F1800
G1 X88.063 Y84.925 E12.27385
G1 X87.429 Y85.929 E12.32969
G1 X86.425 Y86.563 E12.38553
G1 X86.425 Y89.753 E12.53556
G1 X83.575 Y89.753 E12.66958
G1 X83.575 Y86.583 E12.81864
G1 X82.950 Y86.250 E12.85195
G1 X82.199 Y85.481 E12.90251
G1 X81.724 Y84.516 E12.95307
G1 X81.570 Y83.500 E13.00139
G1 X81.724 Y82.484 E13.04971
G1 X82.199 Y81.519 E13.10027
G1 X82.950 Y80.750 E13.15083
G1 X83.575 Y80.417 E13.18414
G1 X83.575 Y70.583 E13.64652
G1 X82.950 Y70.250 E13.67983
G1 X82.199 Y69.481 E13.73039
G1 X81.724 Y68.516 E13.78095
G1 X81.570 Y67.500 E13.82927
G1 X81.724 Y66.484 E13.87760
G1 X82.199 Y65.519 E13.92815
G1 X82.950 Y64.750 E13.97871
G1 X83.575 Y64.417 E14.01202
G1 X83.575 Y61.247 E14.16108
G1 X86.425 Y61.247 E14.29510
G1 X86.425 Y64.437 E14.44513
G1 X87.429 Y65.071 E14.50097
G1 X88.063 Y66.075 E14.55681
G1 X91.253 Y66.075 E14.70684
G1 X91.253 Y68.925 E14.84086
G1 X88.063 Y68.925 E14.99089
G1 X87.429 Y69.929 E15.04673
G1 X86.425 Y70.563 E15.10257
G1 X86.425 Y80.437 E15.56689
G1 X87.429 Y81.071 E15.62273
G1 X88.063 Y82.075 E15.67857
G1 X91.253 Y82.075 E15.82860
G1 X91.253 Y84.865 E15.95979
G1 X91.364 Y85.309 F9600.000
G1 E11.95979 F4800.00000
G92 E0
G1 X62.825 Y60.497 F9600.000
G1 E4.00000 F4800.00000
G1 F1800
G1 X67.175 Y60.497 E4.20453
G1 X67.175 Y63.967 E4.36770
G1 X67.505 Y64.143 E4.38532
G1 X68.421 Y65.081 E4.44695
G1 X69.000 Y66.257 E4.50858
G1 X69.188 Y67.500 E4.56770
G1 X69.000 Y68.743 E4.62683
G1 X68.421 Y69.919 E4.68846
G1 X67.505 Y70.857 E4.75009
G1 X67.175 Y71.033 E4.76771
G1 X67.175 Y79.967 E5.18779
G1 X67.505 Y80.143 E5.20542
G1 X68.421 Y81.081 E5.26704
G1 X69.000 Y82.257 E5.32867
G1 X69.188 Y83.500 E5.38780
G1 X69.000 Y84.743 E5.44692
G1 X68.421 Y85.919 E5.50855
G1 X67.505 Y86.857 E5.57018
G1 X67.175 Y87.033 E5.58780
G1 X67.175 Y90.503 E5.75097
G1 X62.825 Y90.503 E5.95550
G1 X62.825 Y86.976 E6.12134
G1 X62.027 Y86.473 E6.16572
G1 X61.524 Y85.675 E6.21010
G1 X57.997 Y85.675 E6.37594
G1 X57.997 Y81.325 E6.58047
G1 X61.524 Y81.325 E6.74630
G1 X62.027 Y80.527 E6.79068
G1 X62.825 Y80.024 E6.83506
G1 X62.825 Y70.976 E7.26048
G1 X62.027 Y70.473 E7.30486
G1 X61.524 Y69.675 E7.34924
G1 X57.997 Y69.675 E7.51508
G1 X57.997 Y65.325 E7.71961
G1 X61.524 Y65.325 E7.88545
G1 X62.027 Y64.527 E7.92983
G1 X62.825 Y64.024 E7.97421
G1 X62.825 Y60.557 E8.13722
G1 X63.200 Y60.872 F9600.000
G1 F1800
G1 X66.800 Y60.872 E8.30650
G1 X66.800 Y64.192 E8.46261
G1 X67.278 Y64.447 E8.48808
G1 X68.111 Y65.300 E8.54417
G1 X68.638 Y66.370 E8.60026
G1 X68.809 Y67.500 E8.65399
G1 X68.638 Y68.630 E8.70771
G1 X68.111 Y69.700 E8.76381
G1 X67.278 Y70.553 E8.81990
G1 X66.800 Y70.808 E8.84537
G1 X66.800 Y80.192 E9.28660
G1 X67.278 Y80.447 E9.31207
G1 X68.111 Y81.300 E9.36816
G1 X68.638 Y82.370 E9.42425
G1 X68.809 Y83.500 E9.47798
G1 X68.638 Y84.630 E9.53170
G1 X68.111 Y85.700 E9.58779
G1 X67.278 Y86.553 E9.64389
G1 X66.800 Y86.808 E9.66935
G1 X66.800 Y90.128 E9.82547
G1 X63.200 Y90.128 E9.99474
G1 X63.200 Y86.770 E10.15268
G1 X62.299 Y86.201 E10.20279
G1 X61.730 Y85.300 E10.25290
G1 X58.372 Y85.300 E10.41083
G1 X58.372 Y81.700 E10.58010
G1 X61.730 Y81.700 E10.73804
G1 X62.299 Y80.799 E10.78815
G1 X63.200 Y80.230 E10.83826
G1 X63.200 Y70.770 E11.28313
G1 X62.299 Y70.201 E11.33324
G1 X61.730 Y69.300 E11.38335
G1 X58.372 Y69.300 E11.54128
G1 X58.372 Y65.700 E11.71055
G1 X61.730 Y65.700 E11.86849
G1 X62.299 Y64.799 E11.91860
G1 X63.200 Y64.230 E11.96871
G1 X63.200 Y60.932 E12.12382
G1 X63.575 Y61.247 F9600.000
G1 F1800
G1 X66.425 Y61.247 E12.25784
G1 X66.425 Y64.417 E12.40690
G1 X67.050 Y64.750 E12.44021
G1 X67.801 Y65.519 E12.49077
G1 X68.276 Y66.484 E12.54132
G1 X68.430 Y67.500 E12.58965
G1 X68.276 Y68.516 E12.63797
G1 X67.801 Y69.481 E12.68853
G1 X67.050 Y70.250 E12.73909
G1 X66.425 Y70.583 E12.77240
G1 X66.425 Y80.417 E13.23478
G1 X67.050 Y80.750 E13.26809
G1 X67.801 Y81.519 E13.31865
G1 X68.276 Y82.484 E13.36921
G1 X68.430 Y83.500 E13.41753
G1 X68.276 Y84.516 E13.46586
G1 X67.801 Y85.481 E13.51641
G1 X67.050 Y86.250 E13.56697
G1 X66.425 Y86.583 E13.60028
G1 X66.425 Y89.753 E13.74934
G1 X63.575 Y89.753 E13.88336
G1 X63.575 Y86.563 E14.03339
G1 X62.571 Y85.929 E14.08923
G1 X61.937 Y84.925 E14.14507
G1 X58.747 Y84.925 E14.29510
G1 X58.747 Y82.075 E14.42912
G1 X61.937 Y82.075 E14.57915
G1 X62.571 Y81.071 E14.63499
G1 X63.575 Y80.437 E14.69083
G1 X63.575 Y70.563 E15.15515
G1 X62.571 Y69.929 E15.21099
G1 X61.937 Y68.925 E15.26683
G1 X58.747 Y68.925 E15.41686
G1 X58.747 Y66.075 E15.55087
G1 X61.937 Y66.075 E15.70090
G1 X62.571 Y65.071 E15.75674
G1 X63.575 Y64.437 E15.81258
G1 X63.575 Y61.307 E15.95979
G1 X63.609 Y60.848 F9600.000
G1 E11.95979 F4800.00000
G92 E0
G1 X56.175 Y55.675 F9600.000
G1 E4.00000 F4800.00000
G1 F1800
G1 X93.825 Y55.675 E5.77045
G1 X93.825 Y94.325 E7.58791
G1 X56.175 Y94.325 E9.35836
G1 X56.175 Y55.735 E11.17301
G1 X55.800 Y55.300 F9600.000
G1 F1800
G1 X94.200 Y55.300 E12.97871
G1 X94.200 Y94.700 E14.83144
G1 X55.800 Y94.700 E16.63714
G1 X55.800 Y55.360 E18.48704
G1 X55.425 Y54.925 F9600.000
G1 F1800
G1 X94.575 Y54.925 E20.32800
G1 X94.575 Y95.075 E22.21598
G1 X55.425 Y95.075 E24.05694
G1 X55.425 Y54.985 E25.94210
G1 X55.811 Y55.030 F9600.000
G1 E21.94210 F4800.00000
G92 E0
G1 X67.287 Y63.571 F9600.000
G1 E4.00000 F4800.00000
G1 F1800
G1 X82.544 Y78.827 E5.01608
G1 X82.544 Y78.296 E5.04109
G1 X67.456 Y63.208 E6.04593
G1 X67.456 Y62.677 E6.07094
G1 X82.544 Y77.766 E7.07578
G1 X82.544 Y77.235 E7.10079
G1 X67.456 Y62.146 E8.10563
G1 X67.456 Y61.615 E8.13064
G1 X82.544 Y76.704 E9.13548
G1 X82.544 Y76.173 E9.16049
G1 X67.456 Y61.085 E10.16533
G1 X67.456 Y60.554 E10.19034
G1 X82.713 Y75.810 E11.20642
G1 E7.20642 F4800.00000
G92 E0
G1 X82.713 Y79.527 F9600.000
G1 E4.00000 F4800.00000
G1 F1800
G1 X69.188 Y66.003 E4.90071
G1 X69.272 Y66.172 E4.90959
G1 X69.351 Y66.696 E4.93457
G1 X82.485 Y79.830 E5.80925
G1 X82.324 Y79.916 E5.81784
G1 X82.183 Y80.060 E5.82731
G1 X69.446 Y67.322 E6.67562
G1 X69.472 Y67.500 E6.68411
G1 X69.423 Y67.830 E6.69982
G1 X81.921 Y80.328 E7.53220
G1 X81.659 Y80.597 E7.54988
G1 X69.353 Y68.291 E8.36944
G1 X69.283 Y68.752 E8.39141
G1 X81.397 Y80.866 E9.19815
G1 X81.347 Y80.917 E9.20151
G1 X81.205 Y81.205 E9.21664
G1 X69.125 Y69.125 E10.02112
G1 X68.950 Y69.481 E10.03979
G1 X81.030 Y81.561 E10.84428
G1 X80.854 Y81.916 E10.86295
G1 X68.775 Y69.837 E11.66744
G1 X68.653 Y70.083 E11.68038
G1 X68.573 Y70.166 E11.68581
G1 X80.709 Y82.302 E12.49405
G1 X80.639 Y82.763 E12.51601
G1 X68.311 Y70.434 E13.33707
G1 X68.048 Y70.703 E13.35475
G1 X80.569 Y83.224 E14.18863
G1 X80.528 Y83.500 E14.20177
G1 X80.566 Y83.751 E14.21374
G1 X67.786 Y70.972 E15.06482
G1 X67.676 Y71.084 E15.07223
G1 X67.475 Y71.192 E15.08297
G1 X80.660 Y84.377 E15.96108
G1 X80.728 Y84.828 E15.98258
G1 X80.872 Y85.120 E15.99787
G1 X67.456 Y71.704 E16.89136
G1 X67.456 Y72.235 E16.91636
G1 X82.544 Y87.323 E17.92121
G1 X82.544 Y87.854 E17.94621
G1 X67.456 Y72.765 E18.95106
G1 X67.456 Y73.296 E18.97606
G1 X82.544 Y88.385 E19.98091
G1 X82.544 Y88.916 E20.00591
G1 X67.456 Y73.827 E21.01076
G1 X67.456 Y74.358 E21.03576
G1 X82.544 Y89.446 E22.04061
G1 X82.544 Y89.977 E22.06561
G1 X67.456 Y74.889 E23.07046
G1 X67.456 Y75.420 E23.09546
G1 X86.080 Y94.044 E24.33578
G1 X85.549 Y94.044 E24.36079
G1 X67.456 Y75.951 E25.56575
G1 X67.456 Y76.482 E25.59075
G1 X85.018 Y94.044 E26.76035
G1 X84.487 Y94.044 E26.78535
G1 X67.456 Y77.013 E27.91959
G1 X67.456 Y77.544 E27.94459
G1 X83.956 Y94.044 E29.04347
G1 X83.425 Y94.044 E29.06847
G1 X67.456 Y78.075 E30.13199
G1 X67.456 Y78.606 E30.15699
G1 X82.894 Y94.044 E31.18515
G1 X82.363 Y94.044 E31.21016
G1 X67.456 Y79.137 E32.20295
G1 X67.456 Y79.668 E32.22795
G1 X81.832 Y94.044 E33.18539
G1 X81.301 Y94.044 E33.21039
G1 X69.119 Y81.862 E34.02173
G1 X69.272 Y82.172 E34.03800
G1 X69.338 Y82.612 E34.05897
G1 X80.770 Y94.044 E34.82034
G1 X80.239 Y94.044 E34.84534
G1 X69.433 Y83.238 E35.56504
G1 X69.472 Y83.500 E35.57754
G1 X69.432 Y83.768 E35.59029
G1 X79.708 Y94.044 E36.27468
G1 X79.177 Y94.044 E36.29968
G1 X69.362 Y84.229 E36.95336
G1 X69.292 Y84.690 E36.97533
G1 X78.646 Y94.044 E37.59829
G1 X78.116 Y94.044 E37.62329
G1 X69.149 Y85.077 E38.22046
G1 X68.974 Y85.433 E38.23913
G1 X77.585 Y94.044 E38.81261
G1 X77.054 Y94.044 E38.83762
G1 X68.798 Y85.789 E39.38741
G1 X68.653 Y86.083 E39.40287
G1 X68.608 Y86.129 E39.40591
G1 X76.523 Y94.044 E39.93301
G1 X75.992 Y94.044 E39.95802
G1 X68.346 Y86.398 E40.46722
G1 X68.084 Y86.667 E40.48490
G1 X75.461 Y94.044 E40.97621
G1 X74.930 Y94.044 E41.00121
G1 X67.821 Y86.936 E41.47462
G1 X67.676 Y87.084 E41.48441
G1 X67.522 Y87.167 E41.49266
G1 X74.399 Y94.044 E41.95067
G1 X73.868 Y94.044 E41.97567
G1 X67.456 Y87.632 E42.40270
G1 X67.456 Y88.163 E42.42770
G1 X73.337 Y94.044 E42.81937
G1 X72.806 Y94.044 E42.84438
G1 X67.456 Y88.694 E43.20068
G1 X67.456 Y89.225 E43.22569
G1 X72.275 Y94.044 E43.54663
G1 X71.744 Y94.044 E43.57164
G1 X67.456 Y89.756 E43.85722
G1 X67.456 Y90.287 E43.88223
G1 X71.213 Y94.044 E44.13245
G1 X70.682 Y94.044 E44.15746
G1 X67.422 Y90.784 E44.37455
G1 X66.892 Y90.784 E44.39955
G1 X70.151 Y94.044 E44.61665
G1 X69.620 Y94.044 E44.64165
G1 X66.361 Y90.784 E44.85874
G1 X65.830 Y90.784 E44.88375
G1 X69.089 Y94.044 E45.10084
G1 X68.558 Y94.044 E45.12584
G1 X65.299 Y90.784 E45.34293
G1 X64.768 Y90.784 E45.36794
G1 X68.027 Y94.044 E45.58503
G1 X67.497 Y94.044 E45.61003
G1 X64.237 Y90.784 E45.82713
G1 X63.706 Y90.784 E45.85213
G1 X66.966 Y94.044 E46.06922
G1 X66.435 Y94.044 E46.09423
G1 X63.006 Y90.616 E46.32255
G1 X62.713 Y90.322 F9600.000
G1 F1800
G1 X58.346 Y85.956 E46.61334
G1 X58.877 Y85.956 E46.63835
