; generated by PrusaSlicer 2.0.0+win64 on 2019-11-21 at 00:09:23

; 

; external perimeters extrusion width = 0.45mm
; perimeters extrusion width = 0.45mm
; infill extrusion width = 0.45mm
; solid infill extrusion width = 0.45mm
; top infill extrusion width = 0.40mm

M107
M104 S210 ; set temperature
G28 ; home all axes
G1 Z5 F5000 ; lift nozzle
; Filament gcode
M109 S210 ; set temperature and wait for it to be reached
G21 ; set units to millimeters
G90 ; use absolute coordinates
M82 ; use absolute distances for extrusion
G92 E0
G1 Z0.350 F9600.000
G1 E-4.00000 F4800.00000
G92 E0
G1 X56.919 Y57.102 F9600.000
G1 E4.00000 F4800.00000
G1 F1800
G1 X59.569 Y54.723 E4.16748
G1 X60.867 Y53.726 E4.24444
G1 X62.331 Y52.834 E4.32506
G1 X65.272 Y51.363 E4.47968
G1 X66.886 Y50.785 E4.56030
G1 X70.264 Y49.880 E4.72472
G1 X72.002 Y49.649 E4.80717
G1 X74.862 Y49.532 E4.94180
G1 X76.322 Y49.602 E5.01052
G1 X79.523 Y49.975 E5.16206
G1 X82.719 Y50.714 E5.31633
G1 X84.547 Y51.331 E5.40701
G1 X87.621 Y52.852 E5.56833
G1 X89.020 Y53.684 E5.64483
G1 X90.331 Y54.663 E5.72179
G1 X92.856 Y56.878 E5.87972
G1 X95.095 Y59.295 E6.03463
G1 X96.160 Y60.662 E6.11617
G1 X97.058 Y62.123 E6.19679
G1 X98.572 Y65.120 E6.35466
G1 X99.176 Y66.755 E6.43665
G1 X100.019 Y69.833 E6.58671
G1 X100.251 Y71.276 E6.65543
G1 X100.558 Y74.625 E6.81355
G1 X100.513 Y76.241 E6.88959
G1 X100.170 Y79.459 E7.04175
G1 X99.805 Y81.064 E7.11916
G1 X99.036 Y83.453 E7.23716
G1 X98.196 Y85.412 E7.33741
G1 X96.539 Y88.612 E7.50686
G1 X95.535 Y90.049 E7.58931
G1 X93.309 Y92.720 E7.75278
G1 X90.674 Y95.122 E7.92044
G1 X89.392 Y96.123 E7.99694
G1 X87.943 Y97.022 E8.07710
G1 X85.059 Y98.493 E8.22938
G1 X83.338 Y99.147 E8.31594
G1 X80.137 Y100.038 E8.47215
G1 X78.406 Y100.314 E8.55460
G1 X76.085 Y100.453 E8.66393
G1 X72.638 Y100.393 E8.82606
G1 X70.849 Y100.220 E8.91056
G1 X69.143 Y99.862 E8.99255
G1 X66.062 Y98.933 E9.14388
G1 X64.577 Y98.291 E9.21992
G1 X61.278 Y96.565 E9.39503
G1 X59.907 Y95.602 E9.47381
G1 X57.399 Y93.513 E9.62729
G1 X56.224 Y92.278 E9.70745
G1 X53.839 Y89.337 E9.88551
G1 X52.951 Y87.893 E9.96521
G1 X51.451 Y84.934 E10.12120
G1 X50.830 Y83.263 E10.20503
G1 X49.938 Y80.023 E10.36306
G1 X49.692 Y78.464 E10.43727
G1 X49.442 Y75.371 E10.58319
G1 X49.493 Y73.687 E10.66243
G1 X49.870 Y70.321 E10.82170
G1 X50.765 Y66.953 E10.98555
G1 X51.298 Y65.427 E11.06159
G1 X52.871 Y62.257 E11.22797
G1 X53.732 Y60.820 E11.30676
G1 X54.813 Y59.402 E11.39058
G1 X56.878 Y57.146 E11.53441
G1 X57.154 Y57.399 F9600.000
G1 F1800
G1 X59.814 Y55.006 E11.70267
G1 X61.082 Y54.033 E11.77779
G1 X62.503 Y53.167 E11.85607
G1 X65.413 Y51.710 E12.00911
G1 X66.999 Y51.142 E12.08830
G1 X70.332 Y50.249 E12.25055
G1 X72.039 Y50.022 E12.33155
G1 X74.861 Y49.907 E12.46433
G1 X76.283 Y49.975 E12.53131
G1 X79.451 Y50.343 E12.68128
G1 X82.618 Y51.075 E12.83414
G1 X84.405 Y51.678 E12.92282
G1 X87.448 Y53.185 E13.08246
G1 X88.813 Y53.997 E13.15713
G1 X90.100 Y54.959 E13.23270
G1 X92.595 Y57.147 E13.38879
G1 X94.809 Y59.537 E13.54196
G1 X95.850 Y60.873 E13.62160
G1 X96.727 Y62.299 E13.70034
G1 X98.229 Y65.272 E13.85695
G1 X98.819 Y66.870 E13.93705
G1 X99.653 Y69.914 E14.08547
G1 X99.879 Y71.320 E14.15245
G1 X100.183 Y74.630 E14.30873
G1 X100.139 Y76.217 E14.38340
G1 X99.800 Y79.400 E14.53392
G1 X99.443 Y80.967 E14.60949
G1 X98.689 Y83.313 E14.72536
G1 X97.858 Y85.249 E14.82444
G1 X96.223 Y88.411 E14.99179
G1 X95.242 Y89.815 E15.07234
G1 X93.040 Y92.458 E15.23411
G1 X90.435 Y94.833 E15.39990
G1 X89.176 Y95.816 E15.47502
G1 X87.761 Y96.694 E15.55330
G1 X84.904 Y98.152 E15.70411
G1 X83.222 Y98.790 E15.78872
G1 X80.055 Y99.672 E15.94331
G1 X78.364 Y99.942 E16.02385
G1 X76.070 Y100.078 E16.13188
G1 X72.650 Y100.019 E16.29275
G1 X70.904 Y99.849 E16.37523
G1 X69.237 Y99.500 E16.45532
G1 X66.197 Y98.583 E16.60462
G1 X64.748 Y97.958 E16.67884
G1 X61.480 Y96.250 E16.85224
G1 X60.134 Y95.303 E16.92962
G1 X57.660 Y93.244 E17.08097
G1 X56.512 Y92.038 E17.15926
G1 X54.148 Y89.125 E17.33567
G1 X53.276 Y87.707 E17.41395
G1 X51.794 Y84.781 E17.56818
G1 X51.187 Y83.149 E17.65008
G1 X50.304 Y79.942 E17.80647
G1 X50.065 Y78.431 E17.87843
G1 X49.817 Y75.369 E18.02287
G1 X49.866 Y73.724 E18.10025
G1 X50.238 Y70.391 E18.25793
G1 X51.122 Y67.067 E18.41970
G1 X51.646 Y65.568 E18.49437
G1 X53.203 Y62.431 E18.65906
G1 X54.044 Y61.028 E18.73598
G1 X55.100 Y59.643 E18.81788
G1 X57.114 Y57.443 E18.95810
G1 E14.95810 F4800.00000
G92 E0
G1 X81.236 Y81.236 F9600.000
G1 E4.00000 F4800.00000
G1 F1800
G1 X79.825 Y82.382 E4.08549
G1 X78.244 Y83.201 E4.16920
G1 X76.602 Y83.673 E4.24956
G1 X75.000 Y83.820 E4.32520
G1 X73.398 Y83.673 E4.40083
G1 X71.756 Y83.201 E4.48119
G1 X70.175 Y82.382 E4.56490
G1 X68.764 Y81.236 E4.65039
G1 X67.618 Y79.825 E4.73588
G1 X66.799 Y78.244 E4.81959
G1 X66.327 Y76.602 E4.89995
G1 X66.180 Y75.000 E4.97559
G1 X66.327 Y73.398 E5.05122
G1 X66.799 Y71.756 E5.13158
G1 X67.618 Y70.175 E5.21529
G1 X68.764 Y68.764 E5.30078
G1 X70.175 Y67.618 E5.38627
G1 X71.756 Y66.799 E5.46998
G1 X73.398 Y66.327 E5.55034
G1 X75.000 Y66.180 E5.62598
G1 X76.602 Y66.327 E5.70161
G1 X78.244 Y66.799 E5.78197
G1 X79.825 Y67.618 E5.86568
G1 X81.236 Y68.764 E5.95117
G1 X82.382 Y70.175 E6.03666
G1 X83.201 Y71.756 E6.12037
G1 X83.673 Y73.398 E6.20073
G1 X83.820 Y75.000 E6.27637
G1 X83.673 Y76.602 E6.35200
G1 X83.201 Y78.244 E6.43236
G1 X82.382 Y79.825 E6.51607
G1 X81.274 Y81.189 E6.59874
G1 X81.527 Y81.472 F9600.000
G1 F1800
G1 X80.031 Y82.697 E6.68965
G1 X78.384 Y83.551 E6.77692
G1 X76.671 Y84.043 E6.86070
G1 X75.000 Y84.197 E6.93962
G1 X73.329 Y84.043 E7.01853
G1 X71.616 Y83.551 E7.10231
G1 X69.969 Y82.697 E7.18958
G1 X68.498 Y81.502 E7.27870
G1 X67.303 Y80.031 E7.36782
G1 X66.449 Y78.384 E7.45509
G1 X65.957 Y76.671 E7.53887
G1 X65.803 Y75.000 E7.61779
G1 X65.957 Y73.329 E7.69671
G1 X66.449 Y71.616 E7.78048
G1 X67.303 Y69.969 E7.86775
G1 X68.498 Y68.498 E7.95687
G1 X69.969 Y67.303 E8.04599
G1 X71.616 Y66.449 E8.13326
G1 X73.329 Y65.957 E8.21704
G1 X75.000 Y65.803 E8.29596
G1 X76.671 Y65.957 E8.37488
G1 X78.384 Y66.449 E8.45866
G1 X80.031 Y67.303 E8.54592
G1 X81.502 Y68.498 E8.63504
G1 X82.697 Y69.969 E8.72417
G1 X83.551 Y71.616 E8.81143
G1 X84.043 Y73.329 E8.89521
G1 X84.197 Y75.000 E8.97413
G1 X84.043 Y76.671 E9.05305
G1 X83.551 Y78.384 E9.13683
G1 X82.697 Y80.031 E9.22409
G1 X81.565 Y81.426 E9.30857
G1 X81.818 Y81.709 F9600.000
G1 F1800
G1 X81.769 Y81.769 E9.31222
G1 X80.238 Y83.013 E9.40497
G1 X78.523 Y83.901 E9.49580
G1 X76.741 Y84.414 E9.58299
G1 X75.000 Y84.573 E9.66520
G1 X73.259 Y84.414 E9.74740
G1 X71.477 Y83.901 E9.83459
G1 X69.762 Y83.013 E9.92542
G1 X68.231 Y81.769 E10.01817
G1 X66.987 Y80.238 E10.11092
G1 X66.099 Y78.523 E10.20175
G1 X65.586 Y76.741 E10.28895
G1 X65.427 Y75.000 E10.37115
G1 X65.586 Y73.259 E10.45335
G1 X66.099 Y71.477 E10.54055
G1 X66.987 Y69.762 E10.63137
G1 X68.231 Y68.231 E10.72412
G1 X69.762 Y66.987 E10.81688
G1 X71.477 Y66.099 E10.90770
G1 X73.259 Y65.586 E10.99490
G1 X75.000 Y65.427 E11.07710
G1 X76.741 Y65.586 E11.15930
G1 X78.523 Y66.099 E11.24650
G1 X80.238 Y66.987 E11.33732
G1 X81.769 Y68.231 E11.43008
G1 X83.013 Y69.762 E11.52283
G1 X83.901 Y71.477 E11.61365
G1 X84.414 Y73.259 E11.70085
G1 X84.573 Y75.000 E11.78305
G1 X84.414 Y76.741 E11.86525
G1 X83.901 Y78.523 E11.95245
G1 X83.013 Y80.238 E12.04327
G1 X81.856 Y81.662 E12.12956
G1 X81.741 Y81.699 F9600.000
G1 E8.12956 F4800.00000
G92 E0
G1 X83.218 Y72.220 F9600.000
G1 E4.00000 F4800.00000
G1 F1800
G1 X78.027 Y67.030 E4.34925
G1 X77.280 Y66.819 E4.38619
G1 X83.188 Y72.727 E4.78370
G1 X83.398 Y73.473 E4.82060
G1 X76.533 Y66.609 E5.28253
G1 X75.936 Y66.548 E5.31109
G1 X83.452 Y74.064 E5.81685
G1 X83.506 Y74.655 E5.84507
G1 X75.345 Y66.494 E6.39422
G1 X75.000 Y66.462 E6.41072
G1 X74.796 Y66.481 E6.42048
G1 X83.519 Y75.204 E7.00747
G1 X83.474 Y75.696 E7.03095
G1 X74.304 Y66.526 E7.64797
G1 X73.813 Y66.571 E7.67145
G1 X83.429 Y76.187 E8.31850
G1 X83.396 Y76.550 E8.33583
G1 X83.364 Y76.659 E8.34123
G1 X73.341 Y66.636 E9.01569
G1 X72.925 Y66.755 E9.03631
G1 X83.245 Y77.075 E9.73074
G1 X83.125 Y77.492 E9.75137
G1 X72.508 Y66.875 E10.46577
G1 X72.091 Y66.995 E10.48640
G1 X83.005 Y77.909 E11.22078
G1 X82.939 Y78.140 E11.23222
G1 X82.857 Y78.297 E11.24066
G1 X71.703 Y67.143 E11.99122
G1 X71.349 Y67.326 E12.01015
G1 X82.674 Y78.651 E12.77217
G1 X82.491 Y79.004 E12.79111
G1 X70.996 Y67.509 E13.56459
G1 X70.643 Y67.692 E13.58353
G1 X82.308 Y79.357 E14.36847
G1 X82.118 Y79.704 E14.38727
G1 X70.296 Y67.882 E15.18278
G1 X70.000 Y68.122 E15.20093
G1 X81.878 Y80.000 E16.00018
G1 X81.637 Y80.296 E16.01832
G1 X69.704 Y68.363 E16.82131
G1 X69.408 Y68.603 E16.83945
G1 X81.397 Y80.592 E17.64618
G1 X81.156 Y80.888 E17.66432
G1 X69.112 Y68.844 E18.47478
G1 X68.964 Y68.964 E18.48385
G1 X68.844 Y69.112 E18.49293
G1 X80.888 Y81.156 E19.30339
G1 X80.592 Y81.397 E19.32153
G1 X68.603 Y69.408 E20.12826
G1 X68.363 Y69.704 E20.14640
G1 X80.296 Y81.637 E20.94939
G1 X80.000 Y81.878 E20.96753
G1 X68.122 Y70.000 E21.76678
G1 X67.882 Y70.296 E21.78493
G1 X79.704 Y82.118 E22.58043
G1 X79.357 Y82.308 E22.59924
G1 X67.692 Y70.643 E23.38418
G1 X67.509 Y70.996 E23.40312
G1 X79.004 Y82.491 E24.17659
G1 X78.650 Y82.674 E24.19553
G1 X67.326 Y71.350 E24.95755
G1 X67.143 Y71.703 E24.97648
G1 X78.297 Y82.857 E25.72704
G1 X78.140 Y82.939 E25.73548
G1 X77.909 Y83.005 E25.74692
G1 X66.995 Y72.091 E26.48129
G1 X66.875 Y72.508 E26.50192
G1 X77.492 Y83.125 E27.21632
G1 X77.075 Y83.245 E27.23695
G1 X66.755 Y72.925 E27.93137
G1 X66.636 Y73.341 E27.95200
G1 X76.659 Y83.364 E28.62645
G1 X76.550 Y83.396 E28.63184
G1 X76.187 Y83.429 E28.64918
G1 X66.571 Y73.813 E29.29623
G1 X66.526 Y74.305 E29.31971
G1 X75.695 Y83.474 E29.93672
G1 X75.204 Y83.519 E29.96020
G1 X66.481 Y74.796 E30.54719
G1 X66.462 Y75.000 E30.55693
G1 X66.494 Y75.345 E30.57344
G1 X74.655 Y83.506 E31.12258
G1 X74.064 Y83.452 E31.15080
G1 X66.548 Y75.936 E31.65655
G1 X66.602 Y76.527 E31.68477
G1 X73.473 Y83.398 E32.14713
G1 X72.727 Y83.188 E32.18404
G1 X66.812 Y77.273 E32.58201
G1 X67.029 Y78.026 E32.61929
G1 X72.220 Y83.218 E32.96860
G1 X71.309 Y82.843 F9600.000
G1 F1800
G1 X67.157 Y78.691 E33.24798
G1 X67.799 Y79.869 F9600.000
G1 F1800
G1 X70.131 Y82.201 E33.40494
G1 E29.40494 F4800.00000
G92 E0
G1 X82.843 Y71.309 F9600.000
G1 E4.00000 F4800.00000
G1 F1800
G1 X78.691 Y67.157 E4.27940
G1 X79.868 Y67.798 F9600.000
G1 F1800
G1 X82.202 Y70.132 E4.43643
G1 Z0.650 F9600.000
M104 S185 ; set temperature
G1 X81.375 Y81.349
G1 F4200
G1 X79.923 Y82.532 E4.51408
G1 X78.311 Y83.368 E4.58938
G1 X76.635 Y83.850 E4.66167
G1 X75.000 Y84.000 E4.72973
G1 X73.365 Y83.850 E4.79780
G1 X71.689 Y83.368 E4.87008
G1 X70.077 Y82.532 E4.94538
G1 X68.637 Y81.363 E5.02228
G1 X67.468 Y79.923 E5.09918
G1 X66.632 Y78.311 E5.17448
G1 X66.150 Y76.635 E5.24677
G1 X66.000 Y75.000 E5.31483
G1 X66.150 Y73.365 E5.38289
G1 X66.632 Y71.689 E5.45518
G1 X67.468 Y70.077 E5.53048
G1 X68.637 Y68.637 E5.60738
G1 X70.077 Y67.468 E5.68428
G1 X71.689 Y66.632 E5.75958
G1 X73.365 Y66.150 E5.83187
G1 X75.000 Y66.000 E5.89993
G1 X76.635 Y66.150 E5.96799
G1 X78.311 Y66.632 E6.04028
G1 X79.923 Y67.468 E6.11558
G1 X81.363 Y68.637 E6.19248
G1 X82.532 Y70.077 E6.26938
G1 X83.368 Y71.689 E6.34468
G1 X83.850 Y73.365 E6.41696
G1 X84.000 Y75.000 E6.48503
G1 X83.850 Y76.635 E6.55309
G1 X83.368 Y78.311 E6.62538
G1 X82.532 Y79.923 E6.70068
G1 X81.412 Y81.302 E6.77432
G1 X81.674 Y81.592 F9600.000
G1 F4200
G1 X80.136 Y82.857 E6.85689
G1 X78.454 Y83.728 E6.93541
G1 X76.706 Y84.230 E7.01080
G1 X75.000 Y84.387 E7.08184
G1 X73.294 Y84.230 E7.15289
G1 X71.546 Y83.728 E7.22827
G1 X69.864 Y82.857 E7.30680
G1 X68.363 Y81.637 E7.38699
G1 X67.143 Y80.136 E7.46718
G1 X66.272 Y78.454 E7.54571
G1 X65.770 Y76.706 E7.62109
G1 X65.613 Y75.000 E7.69214
G1 X65.770 Y73.294 E7.76318
G1 X66.272 Y71.546 E7.83857
G1 X67.143 Y69.864 E7.91709
G1 X68.363 Y68.363 E7.99728
G1 X69.864 Y67.143 E8.07748
G1 X71.546 Y66.272 E8.15600
G1 X73.294 Y65.770 E8.23139
G1 X75.000 Y65.613 E8.30243
G1 X76.706 Y65.770 E8.37347
G1 X78.454 Y66.272 E8.44886
G1 X80.136 Y67.143 E8.52738
G1 X81.637 Y68.363 E8.60758
G1 X82.857 Y69.864 E8.68777
G1 X83.728 Y71.546 E8.76629
G1 X84.230 Y73.294 E8.84168
G1 X84.387 Y75.000 E8.91272
G1 X84.230 Y76.706 E8.98377
G1 X83.728 Y78.454 E9.05915
G1 X82.857 Y80.136 E9.13768
G1 X81.712 Y81.545 E9.21296
G1 X81.973 Y81.835 F9600.000
G1 F2100
G1 X81.911 Y81.911 E9.21704
G1 X80.348 Y83.181 E9.30053
G1 X78.597 Y84.088 E9.38228
G1 X76.778 Y84.611 E9.46076
G1 X75.000 Y84.774 E9.53478
G1 X73.222 Y84.611 E9.60880
G1 X71.403 Y84.088 E9.68729
G1 X69.652 Y83.181 E9.76904
G1 X68.089 Y81.911 E9.85253
G1 X66.819 Y80.348 E9.93601
G1 X65.912 Y78.597 E10.01776
G1 X65.389 Y76.778 E10.09625
G1 X65.226 Y75.000 E10.17027
G1 X65.389 Y73.222 E10.24429
G1 X65.912 Y71.403 E10.32278
G1 X66.819 Y69.652 E10.40453
G1 X68.089 Y68.089 E10.48801
G1 X69.652 Y66.819 E10.57150
G1 X71.403 Y65.912 E10.65325
G1 X73.222 Y65.389 E10.73174
G1 X75.000 Y65.226 E10.80576
G1 X76.778 Y65.389 E10.87978
G1 X78.597 Y65.912 E10.95827
G1 X80.348 Y66.819 E11.04002
G1 X81.911 Y68.089 E11.12350
G1 X83.181 Y69.652 E11.20699
G1 X84.088 Y71.403 E11.28874
G1 X84.611 Y73.222 E11.36723
G1 X84.774 Y75.000 E11.44125
G1 X84.611 Y76.778 E11.51527
G1 X84.088 Y78.597 E11.59375
G1 X83.181 Y80.348 E11.67550
G1 X82.011 Y81.788 E11.75243
G1 X81.876 Y81.823 F9600.000
G1 X83.002 Y78.766
G1 F1200
G1 X78.766 Y83.002 E12.00166
G1 X77.837 Y83.384 F9600.000
G1 F1200
G1 X83.130 Y78.090 E12.31318
G1 X83.351 Y77.322 E12.34644
G1 X77.322 Y83.351 E12.70124
G1 X76.560 Y83.566 E12.73420
G1 X83.566 Y76.560 E13.14650
G1 X83.621 Y75.957 E13.17168
G1 X75.957 Y83.621 E13.62270
G1 X75.354 Y83.677 E13.64789
G1 X83.677 Y75.354 E14.13762
G1 X83.709 Y75.000 E14.15243
G1 X83.690 Y74.793 E14.16106
G1 X74.793 Y83.690 E14.68460
G1 X74.292 Y83.644 E14.70555
G1 X83.644 Y74.292 E15.25588
G1 X83.598 Y73.791 E15.27683
G1 X73.791 Y83.598 E15.85396
G1 X73.419 Y83.564 E15.86950
G1 X73.309 Y83.533 E15.87425
G1 X83.533 Y73.309 E16.47586
G1 X83.410 Y72.884 E16.49426
G1 X72.884 Y83.410 E17.11370
G1 X72.459 Y83.288 E17.13210
G1 X83.288 Y72.459 E17.76935
G1 X83.166 Y72.034 E17.78776
G1 X72.034 Y83.166 E18.44284
G1 X71.797 Y83.098 E18.45309
G1 X71.637 Y83.015 E18.46057
G1 X83.015 Y71.637 E19.13011
G1 X82.828 Y71.277 E19.14700
G1 X71.277 Y82.828 E19.82676
G1 X70.916 Y82.641 E19.84366
G1 X82.641 Y70.916 E20.53364
G1 X82.455 Y70.556 E20.55054
G1 X70.556 Y82.455 E21.25075
G1 X70.202 Y82.261 E21.26753
G1 X82.261 Y70.202 E21.97718
G1 X82.016 Y69.900 E21.99337
G1 X69.900 Y82.016 E22.70635
G1 X69.598 Y81.771 E22.72254
G1 X81.771 Y69.598 E23.43886
G1 X81.525 Y69.296 E23.45505
G1 X69.296 Y81.525 E24.17471
G1 X68.994 Y81.280 E24.19090
G1 X81.280 Y68.994 E24.91389
G1 X81.157 Y68.843 E24.92198
G1 X81.006 Y68.720 E24.93008
G1 X68.720 Y81.006 E25.65307
G1 X68.475 Y80.704 E25.66926
G1 X80.704 Y68.475 E26.38891
G1 X80.402 Y68.229 E26.40510
G1 X68.229 Y80.402 E27.12142
G1 X67.984 Y80.100 E27.13761
G1 X80.100 Y67.984 E27.85059
G1 X79.798 Y67.739 E27.86678
G1 X67.739 Y79.798 E28.57643
G1 X67.545 Y79.444 E28.59321
G1 X79.444 Y67.545 E29.29342
G1 X79.084 Y67.358 E29.31031
G1 X67.358 Y79.084 E30.00030
G1 X67.172 Y78.723 E30.01719
G1 X78.723 Y67.172 E30.69695
G1 X78.363 Y66.985 E30.71385
G1 X66.985 Y78.363 E31.38338
G1 X66.902 Y78.203 E31.39086
G1 X66.834 Y77.966 E31.40111
G1 X77.966 Y66.834 E32.05619
G1 X77.541 Y66.712 E32.07459
G1 X66.712 Y77.541 E32.71184
G1 X66.590 Y77.116 E32.73025
G1 X77.116 Y66.590 E33.34967
G1 X76.691 Y66.467 E33.36808
G1 X66.467 Y76.691 E33.96968
G1 X66.436 Y76.581 E33.97443
G1 X66.402 Y76.209 E33.98998
G1 X76.209 Y66.402 E34.56710
G1 X75.708 Y66.356 E34.58805
G1 X66.356 Y75.708 E35.13837
G1 X66.310 Y75.206 E35.15932
G1 X75.206 Y66.310 E35.68286
G1 X75.000 Y66.291 E35.69148
G1 X74.646 Y66.323 E35.70629
G1 X66.323 Y74.646 E36.19602
G1 X66.379 Y74.043 E36.22120
G1 X74.043 Y66.379 E36.67222
G1 X73.440 Y66.434 E36.69740
G1 X66.434 Y73.440 E37.10969
G1 X66.649 Y72.678 E37.14265
G1 X72.678 Y66.649 E37.49744
G1 X71.910 Y66.870 E37.53070
G1 X66.616 Y72.163 E37.84220
G1 X66.999 Y71.234 F9600.000
G1 F1200
G1 X71.234 Y66.999 E38.09142
