; generated by PrusaSlicer 2.0.0+win64 on 2019-09-02 at 21:29:37

; 

; external perimeters extrusion width = 0.45mm
; perimeters extrusion width = 0.45mm
; infill extrusion width = 0.45mm
; solid infill extrusion width = 0.45mm
; top infill extrusion width = 0.40mm

M107
M104 S185 ; set temperature
G28 ; home all axes
G1 Z5 F5000 ; lift nozzle
; Filament gcode
M109 S185 ; set temperature and wait for it to be reached
G21 ; set units to millimeters
G90 ; use absolute coordinates
M82 ; use absolute distances for extrusion
G92 E0
G1 Z0.350 F9600.000
G1 E-4.00000 F4800.00000
G92 E0
G1 X58.501 Y64.357 F9600.000
G1 E4.00000 F4800.00000
G1 F1800
G1 X60.370 Y61.890 E4.14556
G1 X61.258 Y60.918 E4.20744
G1 X63.379 Y59.137 E4.33770
G1 X64.208 Y58.534 E4.38588
G1 X65.085 Y58.021 E4.43369
G1 X67.625 Y56.756 E4.56711
G1 X68.683 Y56.391 E4.61974
G1 X71.359 Y55.694 E4.74976
G1 X73.938 Y55.368 E4.87200
G1 X75.008 Y55.313 E4.92240
G1 X77.582 Y55.507 E5.04374
G1 X78.708 Y55.666 E5.09724
G1 X81.317 Y56.376 E5.22437
G1 X82.349 Y56.743 E5.27589
G1 X85.816 Y58.602 E5.46088
G1 X88.134 Y60.385 E5.59841
G1 X88.967 Y61.133 E5.65104
G1 X89.664 Y61.906 E5.70001
G1 X91.457 Y64.196 E5.83672
G1 X92.016 Y65.150 E5.88873
G1 X93.278 Y67.702 E6.02259
G1 X93.629 Y68.706 E6.07263
G1 X94.352 Y71.386 E6.20316
G1 X94.494 Y72.441 E6.25320
G1 X94.647 Y75.001 E6.37379
G1 X94.315 Y78.566 E6.54216
G1 X93.777 Y80.778 E6.64920
G1 X93.241 Y82.402 E6.72961
G1 X92.219 Y84.455 E6.83750
G1 X91.379 Y85.848 E6.91397
G1 X89.605 Y88.102 E7.04883
G1 X88.924 Y88.857 E7.09664
G1 X86.769 Y90.737 E7.23117
G1 X85.919 Y91.378 E7.28120
G1 X85.006 Y91.925 E7.33123
G1 X82.457 Y93.217 E7.46563
G1 X81.433 Y93.583 E7.51677
G1 X78.708 Y94.334 E7.64966
G1 X77.702 Y94.481 E7.69747
G1 X74.993 Y94.687 E7.82524
G1 X71.324 Y94.341 E7.99852
G1 X68.650 Y93.614 E8.12882
G1 X67.599 Y93.242 E8.18125
G1 X65.050 Y91.960 E8.31543
G1 X64.155 Y91.429 E8.36435
G1 X62.453 Y90.108 E8.46567
G1 X61.223 Y89.007 E8.54328
G1 X60.479 Y88.203 E8.59480
G1 X58.705 Y85.975 E8.72875
G1 X56.955 Y82.847 E8.89727
G1 X55.035 Y77.798 E9.15127
G1 X54.724 Y76.366 E9.22018
G1 X54.620 Y74.912 E9.28872
G1 X54.699 Y73.654 E9.34801
G1 X54.933 Y72.415 E9.40730
G1 X55.420 Y70.888 E9.48266
G1 X55.997 Y69.488 E9.55384
G1 X58.475 Y64.411 E9.81951
G1 E5.81951 F4800.00000
G92 E0
G1 X80.881 Y80.884 F9600.000
G1 E4.00000 F4800.00000
G1 F1800
G1 X79.543 Y81.969 E4.08100
G1 X78.041 Y82.742 E4.16041
G1 X76.520 Y83.180 E4.23486
G1 X74.996 Y83.321 E4.30680
G1 X73.493 Y83.183 E4.37780
G1 X71.943 Y82.738 E4.45360
G1 X70.455 Y81.968 E4.53238
G1 X69.121 Y80.887 E4.61313
G1 X68.034 Y79.548 E4.69424
G1 X67.260 Y78.052 E4.77347
G1 X66.817 Y76.511 E4.84885
G1 X66.678 Y74.999 E4.92021
G1 X66.816 Y73.499 E4.99107
G1 X67.308 Y71.832 E5.07278
G1 X67.897 Y70.695 E5.13300
G1 X68.112 Y70.344 E5.15236
G1 X69.059 Y69.178 E5.22300
G1 X70.431 Y68.048 E5.30658
G1 X71.982 Y67.249 E5.38863
G1 X73.516 Y66.814 E5.46360
G1 X74.996 Y66.679 E5.53350
G1 X76.527 Y66.821 E5.60579
G1 X78.002 Y67.245 E5.67798
G1 X79.532 Y68.025 E5.75873
G1 X80.878 Y69.114 E5.84013
G1 X81.957 Y70.439 E5.92045
G1 X82.728 Y71.922 E5.99907
G1 X83.180 Y73.485 E6.07560
G1 X83.320 Y75.000 E6.14713
G1 X83.180 Y76.514 E6.21865
G1 X82.730 Y78.073 E6.29493
G1 X81.960 Y79.557 E6.37355
G1 X80.918 Y80.837 E6.45116
G1 X81.171 Y81.120 F9600.000
G1 F1800
G1 X79.749 Y82.284 E6.53760
G1 X78.180 Y83.092 E6.62056
G1 X76.589 Y83.550 E6.69840
G1 X74.997 Y83.697 E6.77362
G1 X73.423 Y83.553 E6.84791
G1 X71.804 Y83.088 E6.92713
G1 X70.249 Y82.284 E7.00945
G1 X68.855 Y81.153 E7.09384
G1 X67.718 Y79.755 E7.17860
G1 X66.910 Y78.191 E7.26139
G1 X66.447 Y76.580 E7.34018
G1 X66.289 Y74.854 E7.42169
G1 X66.315 Y74.859 E7.42294
G1 X66.446 Y73.428 E7.49050
G1 X66.959 Y71.692 E7.57563
G1 X67.571 Y70.512 E7.63814
G1 X67.805 Y70.127 E7.65930
G1 X68.785 Y68.920 E7.73240
G1 X68.950 Y68.768 E7.74299
G1 X70.225 Y67.732 E7.82020
G1 X71.843 Y66.898 E7.90584
G1 X73.447 Y66.443 E7.98422
G1 X74.996 Y66.303 E8.05737
G1 X76.601 Y66.452 E8.13317
G1 X78.141 Y66.895 E8.20848
G1 X79.737 Y67.709 E8.29277
G1 X81.144 Y68.847 E8.37785
G1 X82.271 Y70.232 E8.46181
G1 X83.078 Y71.782 E8.54398
G1 X83.550 Y73.415 E8.62394
G1 X83.696 Y75.000 E8.69877
G1 X83.550 Y76.584 E8.77358
G1 X83.080 Y78.213 E8.85329
G1 X82.275 Y79.764 E8.93545
G1 X81.209 Y81.074 E9.01487
G1 X81.462 Y81.357 F9600.000
G1 F1800
G1 X81.413 Y81.417 E9.01853
G1 X79.955 Y82.600 E9.10682
G1 X78.319 Y83.443 E9.19333
G1 X76.659 Y83.920 E9.27457
G1 X74.997 Y84.073 E9.35307
G1 X73.354 Y83.923 E9.43064
G1 X71.665 Y83.438 E9.51327
G1 X70.043 Y82.599 E9.59915
G1 X68.589 Y81.420 E9.68718
G1 X67.403 Y79.961 E9.77558
G1 X66.560 Y78.330 E9.86193
G1 X66.077 Y76.650 E9.94413
G1 X65.871 Y74.400 E10.05035
G1 X65.979 Y74.419 E10.05552
G1 X66.076 Y73.357 E10.10567
G1 X66.610 Y71.551 E10.19422
G1 X67.244 Y70.328 E10.25902
G1 X67.498 Y69.910 E10.28199
G1 X68.511 Y68.663 E10.35755
G1 X68.705 Y68.484 E10.36996
G1 X70.018 Y67.417 E10.44955
G1 X71.705 Y66.548 E10.53878
G1 X73.378 Y66.073 E10.62057
G1 X74.997 Y65.927 E10.69697
G1 X76.676 Y66.084 E10.77628
G1 X78.279 Y66.544 E10.85470
G1 X79.943 Y67.393 E10.94253
G1 X81.410 Y68.580 E11.03130
G1 X82.586 Y70.025 E11.11889
G1 X83.427 Y71.642 E11.20462
G1 X83.920 Y73.345 E11.28800
G1 X84.073 Y75.000 E11.36614
G1 X83.920 Y76.654 E11.44424
G1 X83.430 Y78.352 E11.52737
G1 X82.590 Y79.970 E11.61309
G1 X81.500 Y81.310 E11.69431
G1 X81.385 Y81.347 F9600.000
G1 E7.69431 F4800.00000
G92 E0
G1 X65.677 Y74.575 F9600.000
G1 E4.00000 F4800.00000
G1 F1800
G1 X65.289 Y74.575 E4.01822
G1 X65.378 Y74.314 E4.03117
G1 X65.694 Y74.370 E4.04629
G1 X65.682 Y74.515 E4.05317
G1 X65.300 Y74.483 F9600.000
G1 E0.05317 F4800.00000
G92 E0
G1 X67.218 Y77.497 F9600.000
G1 E4.00000 F4800.00000
G1 F1800
G1 X72.256 Y82.535 E4.34188
G1 X73.014 Y82.753 E4.37976
G1 X67.246 Y76.984 E4.77121
G1 X67.095 Y76.459 E4.79746
G1 X67.078 Y76.276 E4.80628
G1 X73.724 Y82.922 E5.25728
G1 X74.320 Y82.976 E5.28598
G1 X67.023 Y75.680 E5.78111
G1 X66.969 Y75.084 E5.80981
G1 X74.915 Y83.031 E6.34906
G1 X74.996 Y83.038 E6.35297
G1 X75.424 Y82.999 E6.37358
G1 X67.000 Y74.574 E6.94524
G1 X67.045 Y74.079 E6.96912
G1 X75.919 Y82.953 E7.57131
G1 X76.415 Y82.907 E7.59518
G1 X67.091 Y73.583 E8.22789
G1 X67.209 Y73.161 E8.24894
G1 X76.843 Y82.794 E8.90267
G1 X77.263 Y82.674 E8.92365
G1 X67.333 Y72.743 E9.59753
G1 X67.456 Y72.326 E9.61842
G1 X77.683 Y82.553 E10.31244
G1 X77.937 Y82.480 E10.32512
G1 X78.078 Y82.407 E10.33274
G1 X67.584 Y71.912 E11.04491
G1 X67.768 Y71.556 E11.06416
G1 X78.435 Y82.223 E11.78803
G1 X78.792 Y82.039 E11.80730
G1 X67.953 Y71.200 E12.54286
G1 X68.138 Y70.843 E12.56212
G1 X79.149 Y81.855 E13.30938
G1 X79.388 Y81.732 E13.32226
G1 X79.487 Y81.652 E13.32838
G1 X68.342 Y70.506 E14.08471
G1 X68.584 Y70.208 E14.10316
G1 X79.786 Y81.409 E14.86331
G1 X80.085 Y81.167 E14.88176
G1 X68.827 Y69.909 E15.64573
G1 X69.069 Y69.611 E15.66418
G1 X80.383 Y80.925 E16.43196
G1 X80.682 Y80.683 E16.45041
G1 X69.323 Y69.324 E17.22120
G1 X69.620 Y69.080 E17.23964
G1 X80.925 Y80.384 E18.00676
G1 X81.167 Y80.086 E18.02521
G1 X69.917 Y68.835 E18.78866
G1 X70.214 Y68.591 E18.80710
G1 X81.410 Y79.787 E19.56688
G1 X81.652 Y79.489 E19.58533
G1 X70.510 Y68.347 E20.34144
G1 X70.586 Y68.284 E20.34617
G1 X70.852 Y68.147 E20.36050
G1 X81.854 Y79.150 E21.10713
G1 X82.039 Y78.794 E21.12638
G1 X71.209 Y67.963 E21.86133
G1 X71.566 Y67.779 E21.88060
G1 X82.224 Y78.438 E22.60387
G1 X82.409 Y78.081 E22.62312
G1 X71.923 Y67.595 E23.33471
G1 X72.086 Y67.511 E23.34350
G1 X72.315 Y67.446 E23.35493
G1 X82.550 Y77.682 E24.04952
G1 X82.672 Y77.262 E24.07048
G1 X72.736 Y67.327 E24.74469
G1 X73.158 Y67.207 E24.76572
G1 X82.793 Y76.842 E25.41955
G1 X82.907 Y76.416 E25.44075
G1 X73.581 Y67.090 E26.07358
G1 X74.077 Y67.045 E26.09748
G1 X82.953 Y75.920 E26.69975
G1 X82.998 Y75.425 E26.72362
G1 X74.574 Y67.000 E27.29531
G1 X74.996 Y66.962 E27.31567
G1 X75.084 Y66.970 E27.31992
G1 X83.029 Y74.915 E27.85907
G1 X82.975 Y74.319 E27.88778
G1 X75.680 Y67.024 E28.38279
G1 X76.276 Y67.079 E28.41149
G1 X82.920 Y73.723 E28.86235
G1 X82.903 Y73.538 E28.87130
G1 X82.751 Y73.014 E28.89748
G1 X76.987 Y67.250 E29.28860
G1 X77.742 Y67.464 E29.32624
G1 X82.778 Y72.499 E29.66797
G1 X82.449 Y71.630 F9600.000
G1 F1800
G1 X78.387 Y67.567 E29.94363
G1 X79.522 Y68.162 F9600.000
G1 F1800
G1 X81.863 Y70.503 E30.10246
G1 E26.10246 F4800.00000
G92 E0
G1 X71.628 Y82.448 F9600.000
G1 E4.00000 F4800.00000
G1 F1800
G1 X67.553 Y78.374 E4.27651
G1 X68.144 Y79.506 F9600.000
G1 F1800
G1 X70.491 Y81.853 E4.43576
G1 Z0.650 F9600.000
G1 X66.679 Y73.398
G1 F4200
G1 X67.229 Y71.560 E4.51533
G1 X67.417 Y71.198 E4.53223
G1 X68.154 Y69.987 E4.59101
G1 X68.776 Y69.221 E4.63193
G1 X69.347 Y68.694 E4.66413
G1 X70.300 Y67.919 E4.71505
G1 X72.004 Y67.050 E4.79433
G1 X73.232 Y66.697 E4.84734
G1 X73.526 Y66.629 E4.85984
G1 X74.997 Y66.500 E4.92106
G1 X76.622 Y66.658 E4.98874
G1 X77.975 Y67.047 E5.04711
G1 X78.253 Y67.156 E5.05947
G1 X79.578 Y67.843 E5.12135
G1 X80.991 Y68.974 E5.19639
G1 X82.084 Y70.309 E5.26794
G1 X82.875 Y71.812 E5.33834
G1 X83.354 Y73.443 E5.40882
G1 X83.499 Y75.000 E5.47367
G1 X83.355 Y76.556 E5.53845
G1 X82.882 Y78.173 E5.60828
G1 X82.094 Y79.677 E5.67870
G1 X80.998 Y81.020 E5.75054
G1 X79.613 Y82.136 E5.82427
G1 X78.091 Y82.915 E5.89518
G1 X76.579 Y83.350 E5.96042
G1 X74.997 Y83.500 E6.02628
G1 X73.483 Y83.362 E6.08934
G1 X71.903 Y82.914 E6.15743
G1 X70.385 Y82.135 E6.22814
G1 X69.005 Y81.023 E6.30163
G1 X67.881 Y79.641 E6.37548
G1 X67.083 Y78.088 E6.44787
G1 X66.638 Y76.526 E6.51519
G1 X66.409 Y74.004 E6.62021
G1 X65.523 Y74.004 E6.65693
G1 X65.554 Y73.913 E6.66089
G1 F3600
G1 X65.615 Y73.738 E6.66925
G1 F4200
G1 X65.946 Y73.129 E6.69800
G1 X66.622 Y73.378 E6.72788
G1 X66.427 Y72.895 F9600.000
G1 F4200
G1 X66.870 Y71.414 E6.79195
G1 X67.081 Y71.009 E6.81089
G1 X67.838 Y69.764 E6.87131
G1 X68.495 Y68.956 E6.91446
G1 X69.094 Y68.402 E6.94831
G1 X70.089 Y67.594 E7.00142
G1 X71.861 Y66.689 E7.08393
G1 X73.136 Y66.323 E7.13892
G1 X73.466 Y66.247 E7.15296
G1 X74.998 Y66.113 E7.21672
G1 X76.699 Y66.279 E7.28755
G1 X78.099 Y66.682 E7.34797
G1 X78.412 Y66.804 E7.36191
G1 X79.789 Y67.518 E7.42621
G1 X81.264 Y68.698 E7.50451
G1 X82.408 Y70.095 E7.57936
G1 X83.234 Y71.666 E7.65297
G1 X83.735 Y73.370 E7.72659
G1 X83.886 Y75.000 E7.79447
G1 X83.735 Y76.629 E7.86228
G1 X83.241 Y78.318 E7.93523
G1 X82.417 Y79.891 E8.00887
G1 X81.271 Y81.295 E8.08400
G1 X79.825 Y82.460 E8.16100
G1 X78.217 Y83.281 E8.23587
G1 X76.651 Y83.731 E8.30341
G1 X74.998 Y83.887 E8.37224
G1 X73.412 Y83.743 E8.43827
G1 X71.761 Y83.274 E8.50943
G1 X70.174 Y82.460 E8.58337
G1 X68.731 Y81.298 E8.66017
G1 X67.556 Y79.853 E8.73738
G1 X66.723 Y78.230 E8.81302
G1 X66.258 Y76.597 E8.88342
G1 X66.057 Y74.389 E8.97534
G1 X64.985 Y74.389 E9.01977
G1 X65.170 Y73.846 E9.04355
G1 F3600
G1 X65.224 Y73.648 E9.05279
G1 X65.767 Y72.652 E9.10388
G1 X65.830 Y72.675 E9.10691
G1 F4200
G1 X66.371 Y72.874 E9.13080
G1 X66.175 Y72.391 F9600.000
G1 F2100
G1 X66.511 Y71.269 E9.17937
G1 X66.744 Y70.819 E9.20037
G1 X67.523 Y69.541 E9.26242
G1 X68.213 Y68.691 E9.30780
G1 X68.842 Y68.111 E9.34330
G1 X69.877 Y67.270 E9.39860
G1 X71.719 Y66.329 E9.48434
G1 X73.040 Y65.949 E9.54130
G1 X73.406 Y65.865 E9.55688
G1 X74.999 Y65.726 E9.62318
G1 X76.775 Y65.900 E9.69717
G1 X78.223 Y66.316 E9.75964
G1 X78.572 Y66.453 E9.77516
G1 X80.000 Y67.193 E9.84187
G1 X81.536 Y68.422 E9.92344
G1 X82.731 Y69.881 E10.00158
G1 X83.593 Y71.521 E10.07841
G1 X84.115 Y73.297 E10.15517
G1 X84.273 Y75.000 E10.22608
G1 X84.116 Y76.701 E10.29691
G1 X83.601 Y78.463 E10.37300
G1 X82.741 Y80.104 E10.44984
G1 X81.545 Y81.570 E10.52826
G1 X80.037 Y82.785 E10.60854
G1 X78.487 Y83.588 E10.68092
G1 X78.342 Y83.646 E10.68739
G1 X76.723 Y84.111 E10.75723
G1 X74.999 Y84.274 E10.82903
G1 X73.341 Y84.124 E10.89804
G1 X71.619 Y83.635 E10.97227
G1 X69.963 Y82.785 E11.04943
G1 X68.458 Y81.573 E11.12955
G1 X67.231 Y80.066 E11.21012
G1 X66.362 Y78.373 E11.28901
G1 X65.877 Y76.668 E11.36249
G1 X65.705 Y74.775 E11.44130
G1 X64.773 Y74.775 E11.47995
G1 F3600
G1 X64.447 Y74.775 E11.49460
G1 X64.829 Y73.649 E11.54816
G1 X64.859 Y73.512 E11.55446
G1 X65.587 Y72.175 E11.62302
G1 X65.940 Y72.305 E11.63995
G1 F2100
G1 X66.119 Y72.371 E11.64784
G1 X66.823 Y73.331 F9600.000
G1 F3600
G1 X68.205 Y71.357 E11.77688
G1 X68.695 Y71.506 E11.80427
G1 X66.756 Y74.274 E11.98520
G1 X66.825 Y75.024 E12.02554
G1 X68.734 Y72.297 E12.20381
G1 X68.645 Y73.272 E12.25626
G1 X66.893 Y75.774 E12.41981
G1 X66.969 Y76.513 E12.45958
G1 X68.555 Y74.248 E12.60767
G1 X68.466 Y75.223 E12.66012
G1 X67.918 Y76.005 E12.71124
G1 X68.082 Y70.328 F9600.000
G1 F1200
G1 X70.423 Y67.987 E12.85024
G1 X71.551 Y67.411 F9600.000
G1 F1200
G1 X68.080 Y70.882 E13.05638
G1 X68.503 Y71.011 E13.07497
G1 X72.228 Y67.286 E13.29613
G1 X73.003 Y67.063 E13.32999
G1 X68.927 Y71.140 E13.57204
G1 X69.251 Y71.238 E13.58627
G1 X69.238 Y71.381 E13.59227
G1 X73.716 Y66.903 E13.85815
G1 X74.321 Y66.850 E13.88366
G1 X69.182 Y71.989 E14.18880
G1 X69.126 Y72.597 E14.21443
G1 X74.926 Y66.797 E14.55881
G1 X75.444 Y66.832 E14.58059
G1 X69.070 Y73.205 E14.95900
G1 X69.015 Y73.813 E14.98463
G1 X75.950 Y66.878 E15.39640
G1 X76.451 Y66.929 E15.41755
G1 X68.959 Y74.421 E15.86237
G1 X68.903 Y75.029 E15.88801
G1 X76.895 Y67.038 E16.36250
G1 X77.324 Y67.161 E16.38124
G1 X67.165 Y77.319 E16.98440
G1 X67.287 Y77.749 E17.00317
G1 X77.753 Y67.284 E17.62452
G1 X78.157 Y67.432 E17.64260
G1 X67.440 Y78.149 E18.27892
G1 X67.627 Y78.514 E18.29614
G1 X78.521 Y67.621 E18.94294
G1 X78.884 Y67.809 E18.96014
G1 X67.814 Y78.879 E19.61742
G1 X68.002 Y79.244 E19.63464
G1 X79.248 Y67.998 E20.30240
G1 X79.420 Y68.086 E20.31050
G1 X79.582 Y68.216 E20.31922
G1 X68.210 Y79.588 E20.99442
G1 X68.458 Y79.893 E21.01090
G1 X79.889 Y68.462 E21.68960
G1 X80.195 Y68.707 E21.70610
G1 X68.705 Y80.197 E22.38829
G1 X68.953 Y80.502 E22.40478
G1 X80.502 Y68.953 E23.09048
G1 X80.804 Y69.203 E23.10695
G1 X69.201 Y80.806 E23.79590
G1 X69.505 Y81.054 E23.81237
G1 X81.053 Y69.506 E24.49805
G1 X81.302 Y69.810 E24.51453
G1 X69.811 Y81.301 E25.19681
G1 X70.117 Y81.547 E25.21330
G1 X81.550 Y70.113 E25.89218
G1 X81.799 Y70.417 E25.90866
G1 X70.422 Y81.794 E26.58414
G1 X70.544 Y81.891 E26.59067
G1 X70.764 Y82.004 E26.60107
G1 X82.000 Y70.769 E27.26817
G1 X82.190 Y71.131 E27.28534
G1 X71.129 Y82.191 E27.94208
G1 X71.494 Y82.379 E27.95930
G1 X82.380 Y71.492 E28.60567
G1 X82.571 Y71.854 E28.62284
G1 X71.859 Y82.566 E29.25884
G1 X72.009 Y82.643 E29.26594
G1 X72.262 Y82.715 E29.27697
G1 X82.708 Y72.269 E29.89719
G1 X82.833 Y72.696 E29.91586
G1 X72.692 Y82.837 E30.51799
G1 X73.122 Y82.959 E30.53676
G1 X82.959 Y73.123 E31.12080
G1 X83.075 Y73.559 E31.13976
G1 X73.555 Y83.079 E31.70496
G1 X74.062 Y83.124 E31.72631
G1 X83.122 Y74.065 E32.26422
G1 X83.168 Y74.570 E32.28553
G1 X74.568 Y83.170 E32.79617
G1 X74.997 Y83.209 E32.81424
G1 X75.090 Y83.200 E32.81818
G1 X83.200 Y75.091 E33.29968
G1 X83.144 Y75.699 E33.32534
G1 X75.700 Y83.143 E33.76728
G1 X76.310 Y83.085 E33.79300
G1 X83.087 Y76.308 E34.19539
G1 X83.069 Y76.502 E34.20355
G1 X82.914 Y77.034 E34.22683
G1 X77.027 Y82.921 E34.57635
G1 X77.802 Y82.698 E34.61021
G1 X82.685 Y77.814 E34.90016
G1 X82.612 Y78.064 E34.91107
G1 X82.199 Y78.853 E34.94845
G1 X78.451 Y82.601 E35.17103
G1 X79.633 Y81.971 F9600.000
G1 F1200
G1 X82.004 Y79.601 E35.31178
G1 Z0.950 F9600.000
G1 X66.409 Y74.004
G1 F4200
G1 X65.010 Y74.004 E35.36980
G1 X65.075 Y73.707 E35.38238
G1 X65.814 Y72.325 E35.44736
G1 X66.379 Y71.612 E35.48508
G1 X66.946 Y72.024 E35.51415
G1 X68.328 Y69.752 E35.62439
G1 X68.636 Y69.373 E35.64464
G1 X69.595 Y68.489 E35.69871
G1 X70.271 Y67.939 E35.73483
G1 X72.082 Y67.021 E35.81902
G1 X73.060 Y66.740 E35.86120
G1 X73.585 Y66.620 E35.88353
G1 X74.996 Y66.500 E35.94223
G1 X76.677 Y66.670 E36.01229
G1 X77.855 Y67.009 E36.06309
G1 X78.354 Y67.204 E36.08531
G1 X79.551 Y67.825 E36.14123
G1 X79.863 Y68.055 E36.15730
G1 X80.977 Y68.959 E36.21677
G1 X82.083 Y70.303 E36.28896
G1 X82.866 Y71.786 E36.35846
G1 X83.352 Y73.430 E36.42953
G1 X83.499 Y75.000 E36.49492
